!!!!SEGMENT: pl-sa--92-a-ii-32_anonim--o-gloriosa-virginum.krn
!!!cenid: 17xx:1753
!!!COM: Anonim
!!!COM-rismid: pe30004985
!!!CDT:
!!!CNT:
!!!OTL: O gloriosa virginum
!!!PDT:
!!!AGN: Sacred
!!!SMS-siglum: PL-SA
!!!SMS-shelfmark: 92/A II 32
!!!SMS-shelfwork: W
!!!SMS-variant:
!!!SMS-altvar:
!!!NIFC-rismid: 1001030094
!!!URL-scan: http://bc.bdsandomierz.pl/dlibra/publication/1369/edition/1337/content
!!!ONB-nifc:
!!!AIN: 1 cbass 2 soprn 2 violn
!!!key: D
**kern	**fba	**dynam	**kern	**dynam	**kern	**dynam	**kern	**text	**kern	**text
*part5	*part5	*part5	*part4	*part4	*part3	*part3	*part2	*part2	*part1	*part1
*staff5	*	*	*staff4	*	*staff3	*	*staff2	*staff2	*staff1	*staff1
*I"Baſso.	*	*	*I"Violino 2do	*	*I"Violino Primo	*	*I"Canti 2do	*	*I"Canto Primo.	*
*I'b	*	*	*I'vl II	*	*I'vl I	*	*I'S II	*	*I'S I	*
*ICstr	*	*	*ICstr	*	*ICstr	*	*ICvox	*	*ICvox	*
*Icbass	*	*	*Ivioln	*	*Ivioln	*	*Isoprn	*	*Isoprn	*
*clefF4	*	*	*clefG2	*	*clefG2	*	*clefC1	*	*clefC1	*
*k[f#c#]	*	*	*k[f#c#]	*	*k[f#c#]	*	*k[f#c#]	*	*k[f#c#]	*
*D:	*	*	*D:	*	*D:	*	*D:	*	*D:	*
*M2/4	*	*	*M2/4	*	*M2/4	*	*M2/4	*	*M2/4	*
=1	=1	=1	=1	=1	=1	=1	=1	=1	=1	=1
!LO:TX:t=P:2\right:problem	!	!	!	!	!	!	!	!	!	!
!	!	!	!	!	!	!	!LO:TX:t=P:problem=kolejność znaków&colon; cc# f#	!	!LO:TX:t=P:problem=kolejność znaków&colon; cc# f#	!
!	!	!	!	!	!	!	!LO:TX:a:t=allo. non Molto.	!	!LO:TX:a:t=allo non molto	!
!LO:TX:a:B:t=allo\nnon molto.	!	!	!LO:TX:a:B:t=allegreto non\nmolto	!	!LO:TX:a:t=allo.\nnon molto	!	!LO:TX:a:t=27	!	!LO:TX:a:t=27.	!
*tremolo	*	*	*tremolo	*	*tremolo	*	*	*	*	*
8D\L	.	.	8ff#\L	.	16dd\LL	.	2r	.	2r	.
.	.	.	.	.	16dd\	.	.	.	.	.
8D\	.	.	8ff#\	.	16dd\	.	.	.	.	.
.	.	.	.	.	16dd\	.	.	.	.	.
8D\	.	.	8ff#\	.	16dd\	.	.	.	.	.
.	.	.	.	.	16dd\	.	.	.	.	.
8D\J	.	.	8ff#\J	.	16dd\	.	.	.	.	.
.	.	.	.	.	16dd\JJ	.	.	.	.	.
=2	=2	=2	=2	=2	=2	=2	=2	=2	=2	=2
8C#/L	.	.	8ee\L	.	16aa\LL	.	2r	.	2r	.
.	.	.	.	.	16aa\	.	.	.	.	.
8C#/	.	.	8ee\	.	16aa\	.	.	.	.	.
.	.	.	.	.	16aa\	.	.	.	.	.
8C#/	.	.	8ee\	.	16aa\	.	.	.	.	.
.	.	.	.	.	16aa\	.	.	.	.	.
8C#/J	.	.	8ee\J	.	16aa\	.	.	.	.	.
.	.	.	.	.	16aa\JJ	.	.	.	.	.
=3	=3	=3	=3	=3	=3	=3	=3	=3	=3	=3
8BB/L	.	.	8gg#X\L	.	16ddd\LL	.	2r	.	2r	.
.	.	.	.	.	16ddd\	.	.	.	.	.
8BB/	.	.	8gg#\	.	16ddd\	.	.	.	.	.
.	.	.	.	.	16ddd\	.	.	.	.	.
8BB/	.	.	8gg#\	.	16ddd\	.	.	.	.	.
.	.	.	.	.	16ddd\	.	.	.	.	.
8BB/J	.	.	8gg#\J	.	16ddd\	.	.	.	.	.
.	.	.	.	.	16ddd\JJ	.	.	.	.	.
=4	=4	=4	=4	=4	=4	=4	=4	=4	=4	=4
!LO:TX:t=P:problem=mixed beam	!	!	!	!	!	!	!	!	!	!
8AA/L	.	.	4aa\	.	16ccc#\LL	.	2r	.	2r	.
.	.	.	.	.	16bb\J	.	.	.	.	.
16A\L	.	.	.	.	8aa\J	.	.	.	.	.
16B\JJ	.	.	.	.	.	.	.	.	.	.
16A\LL	.	.	4r	.	8r	.	.	.	.	.
16G\	.	.	.	.	.	.	.	.	.	.
16F#\	.	.	.	.	8a/	.	.	.	.	.
16E\JJ	.	.	.	.	.	.	.	.	.	.
=5	=5	=5	=5	=5	=5	=5	=5	=5	=5	=5
!	!	!	!	!LO:DY:b:t=p.	!	!	!	!	!	!
8D\L	.	.	8f#/L	p	16d/LL	.	2r	.	2r	.
.	.	.	.	.	16d/	.	.	.	.	.
8D\	.	.	8f#/	.	16d/	.	.	.	.	.
.	.	.	.	.	16d/	.	.	.	.	.
8D\	.	.	8f#/	.	16d/	.	.	.	.	.
.	.	.	.	.	16d/	.	.	.	.	.
8D\J	.	.	8f#/J	.	16d/	.	.	.	.	.
.	.	.	.	.	16d/JJ	.	.	.	.	.
=6	=6	=6	=6	=6	=6	=6	=6	=6	=6	=6
8C#/L	.	.	8e/L	.	16a/LL	.	2r	.	2r	.
.	.	.	.	.	16a/	.	.	.	.	.
8C#/	.	.	8e/	.	16a/	.	.	.	.	.
.	.	.	.	.	16a/	.	.	.	.	.
8C#/	.	.	8e/	.	16a/	.	.	.	.	.
.	.	.	.	.	16a/	.	.	.	.	.
8C#/J	.	.	8e/J	.	16a/	.	.	.	.	.
.	.	.	.	.	16a/JJ	.	.	.	.	.
=7	=7	=7	=7	=7	=7	=7	=7	=7	=7	=7
8BB/L	.	.	8g#X/L	.	16dd\LL	.	2r	.	2r	.
.	.	.	.	.	16dd\	.	.	.	.	.
8BB/	.	.	8g#/	.	16dd\	.	.	.	.	.
.	.	.	.	.	16dd\	.	.	.	.	.
8BB/	.	.	8g#/	.	16dd\	.	.	.	.	.
.	.	.	.	.	16dd\	.	.	.	.	.
8BB/J	.	.	8g#/J	.	16dd\	.	.	.	.	.
.	.	.	.	.	16dd\JJ	.	.	.	.	.
=8	=8	=8	=8	=8	=8	=8	=8	=8	=8	=8
!LO:TX:t=P:problem=mixed beam	!	!	!	!	!	!	!	!	!	!
8AA/L	.	.	4a/	.	16cc#\LL	.	2r	.	2r	.
.	.	.	.	.	16b\J	.	.	.	.	.
16A\L	.	.	.	.	8a\J	.	.	.	.	.
16B\JJ	.	.	.	.	.	.	.	.	.	.
16A\LL	.	.	4r	.	16aa\LL	.	.	.	.	.
16G\	.	.	.	.	16aa\	.	.	.	.	.
16F#\	.	.	.	.	16aa\	.	.	.	.	.
16E\JJ	.	.	.	.	16aa\JJ	.	.	.	.	.
=9	=9	=9	=9	=9	=9	=9	=9	=9	=9	=9
8G\L	.	.	16gg\LL	.	16bb\LL	.	2r	.	2r	.
.	.	.	16gg\	.	16bb\	.	.	.	.	.
8G\	.	.	16gg\	.	16bb\	.	.	.	.	.
.	.	.	16gg\	.	16bb\	.	.	.	.	.
8G\	.	.	16gg\	.	16bb\	.	.	.	.	.
.	.	.	16gg\	.	16bb\	.	.	.	.	.
8G\J	.	.	16gg\	.	16bb\	.	.	.	.	.
.	.	.	16gg\JJ	.	16bb\JJ	.	.	.	.	.
=10	=10	=10	=10	=10	=10	=10	=10	=10	=10	=10
8F#\L	.	.	16ff#\LL	.	16aa\LL	.	2r	.	2r	.
.	.	.	16ff#\	.	16aa\	.	.	.	.	.
8F#\	.	.	16ff#\	.	16aa\	.	.	.	.	.
.	.	.	16ff#\	.	16aa\	.	.	.	.	.
8F#\	.	.	16ff#\	.	16aa\	.	.	.	.	.
.	.	.	16ff#\	.	16aa\	.	.	.	.	.
8F#\J	.	.	16ff#\	.	16aa\	.	.	.	.	.
.	.	.	16ff#\JJ	.	16aa\JJ	.	.	.	.	.
=11	=11	=11	=11	=11	=11	=11	=11	=11	=11	=11
8E\L	.	.	16ee\LL	.	16gg\LL	.	2r	.	2r	.
.	.	.	16ee\	.	16gg\	.	.	.	.	.
8E\	.	.	16ee\	.	16gg\	.	.	.	.	.
.	.	.	16ee\	.	16gg\	.	.	.	.	.
8E\	.	.	16ee\	.	16gg\	.	.	.	.	.
.	.	.	16ee\	.	16gg\	.	.	.	.	.
8E\J	.	.	16ee\	.	16gg\	.	.	.	.	.
.	.	.	16ee\JJ	.	16gg\JJ	.	.	.	.	.
=12	=12	=12	=12	=12	=12	=12	=12	=12	=12	=12
8D\L	.	.	8dd\L	.	16ff#\LL	.	2r	.	2r	.
.	.	.	.	.	16ee\JJ	.	.	.	.	.
8D\	.	.	8dd\	.	4dd\	.	.	.	.	.
8D\	.	.	8dd\	.	.	.	.	.	.	.
8D\J	.	.	8dd\J	.	8a/	.	.	.	.	.
=13	=13	=13	=13	=13	=13	=13	=13	=13	=13	=13
!	!	!	!	!	!	!LO:DY:b	!	!	!	!
8G\L	.	.	16g/LL	.	16b/LL	p	2r	.	2r	.
.	.	.	16g/	.	16b/	.	.	.	.	.
8G\	.	.	16g/	.	16b/	.	.	.	.	.
.	.	.	16g/	.	16b/	.	.	.	.	.
8G\	.	.	16g/	.	16b/	.	.	.	.	.
.	.	.	16g/	.	16b/	.	.	.	.	.
8G\J	.	.	16g/	.	16b/	.	.	.	.	.
.	.	.	16g/JJ	.	16b/JJ	.	.	.	.	.
!	!	!	!	!	!LO:LB:g=original	!	!	!	!	!
=14	=14	=14	=14	=14	=14	=14	=14	=14	=14	=14
8F#\L	.	.	16f#/LL	.	16a/LL	.	2r	.	2r	.
.	.	.	16f#/	.	16a/	.	.	.	.	.
8F#\	.	.	16f#/	.	16a/	.	.	.	.	.
.	.	.	16f#/	.	16a/	.	.	.	.	.
8F#\	.	.	16f#/	.	16a/	.	.	.	.	.
.	.	.	16f#/	.	16a/	.	.	.	.	.
8F#\J	.	.	16f#/	.	16a/	.	.	.	.	.
.	.	.	16f#/JJ	.	16a/JJ	.	.	.	.	.
!LO:LB:g=original	!	!	!	!	!	!	!	!	!	!
=15	=15	=15	=15	=15	=15	=15	=15	=15	=15	=15
8E\L	.	.	16e/LL	.	16g/LL	.	2r	.	2r	.
.	.	.	16e/	.	16g/	.	.	.	.	.
8E\	.	.	16e/	.	16g/	.	.	.	.	.
.	.	.	16e/	.	16g/	.	.	.	.	.
8E\	.	.	16e/	.	16g/	.	.	.	.	.
.	.	.	16e/	.	16g/	.	.	.	.	.
8E\J	.	.	16e/	.	16g/	.	.	.	.	.
.	.	.	16e/JJ	.	16g/JJ	.	.	.	.	.
=16	=16	=16	=16	=16	=16	=16	=16	=16	=16	=16
8D\L	.	.	8d/L	.	16f#/LL	.	2r	.	2r	.
.	.	.	.	.	16e/J	.	.	.	.	.
!	!	!	!	!	!LO:TX:t=P:problem=brak caudy	!	!	!	!	!
8D\	.	.	8d/	.	8d/J	.	.	.	.	.
8D\	.	.	8d/	.	4d/	.	.	.	.	.
8D\J	.	.	8d/J	.	.	.	.	.	.	.
=17	=17	=17	=17	=17	=17	=17	=17	=17	=17	=17
8D\L	.	.	16dd\LL	.	(16ff#\LL	.	2r	.	2r	.
.	.	.	16ff#\	.	16aa\)	.	.	.	.	.
8F#\	.	.	16ff#\	.	16aa`\	.	.	.	.	.
.	.	.	16ff#\JJ	.	16aa`\JJ	.	.	.	.	.
!	!	!	!LO:LB:g=original	!	!	!	!	!	!	!
!	!	!	!	!LO:DY:b:t=for	!	!	!	!	!	!
8F#\	.	.	16ff#\LL	f	(16aa\LL	.	.	.	.	.
.	.	.	16aa\	.	16cccn\)	.	.	.	.	.
8F#\J	.	.	16aa\	.	16ccc`\	.	.	.	.	.
.	.	.	16aa\JJ	.	16ccc`\JJ	.	.	.	.	.
=18	=18	=18	=18	=18	=18	=18	=18	=18	=18	=18
!LO:TX:t=P:problem=mixed beam	!	!	!	!	!	!	!	!	!	!
8G\L	.	.	16gg\LL	.	16bb\LL	.	2r	.	2r	.
.	.	.	16b\	.	16gg\	.	.	.	.	.
8D\	.	.	16b\	.	16gg\	.	.	.	.	.
.	.	.	16b\JJ	.	16gg\JJ	.	.	.	.	.
8GG/	.	.	16b/LL	.	16gg\LL	.	.	.	.	.
.	.	.	16b/	.	16gg\	.	.	.	.	.
8G\J	.	.	16b/	.	16gg\	.	.	.	.	.
.	.	.	16b/JJ	.	16gg\JJ	.	.	.	.	.
=19	=19	=19	=19	=19	=19	=19	=19	=19	=19	=19
!	!	!	!LO:SIC:v:s=16ee	!	!LO:SIC:v:s=16gg#	!	!	!	!	!
8E\L	.	.	16cc#\LL	.	(16aa#X\LL	.	2r	.	2r	.
.	.	.	16gg#X\	.	16bb\)	.	.	.	.	.
8G#X\	.	.	16gg#\	.	16bb`\	.	.	.	.	.
.	.	.	16gg#\JJ	.	16bb`\JJ	.	.	.	.	.
8G#\	.	.	16gg#\LL	.	(16bb\LL	.	.	.	.	.
.	.	.	16bb\	.	16ddd\)	.	.	.	.	.
8G#\J	.	.	16bb\	.	16ddd`\	.	.	.	.	.
.	.	.	16bb\JJ	.	16ddd`\JJ	.	.	.	.	.
=20	=20	=20	=20	=20	=20	=20	=20	=20	=20	=20
!LO:TX:t=P:problem=mixed beam	!	!	!	!	!	!	!	!	!	!
8A\L	.	.	8aa\L	.	16ccc#X\LL	.	2r	.	2r	.
.	.	.	.	.	16aa\	.	.	.	.	.
8E\	.	.	8cc#\	.	16aa\	.	.	.	.	.
.	.	.	.	.	16aa\JJ	.	.	.	.	.
*	*	*	*Xtremolo	*	*Xtremolo	*	*	*	*	*
8AA/	.	.	8cc#\	.	8aa\L	.	.	.	.	.
8A\J	.	.	8cc#\J	.	8aa\J	.	.	.	.	.
=21	=21	=21	=21	=21	=21	=21	=21	=21	=21	=21
8AA/L	.	.	16dd\LL	.	(16ff#\LL	.	2r	.	2r	.
.	.	.	16gg\	.	16aa\)	.	.	.	.	.
8A\	.	.	16gg\	.	16aa`\	.	.	.	.	.
.	.	.	16gg\JJ	.	16aa`\JJ	.	.	.	.	.
8A\	3	.	16gg\LL	.	(16aa\LL	.	.	.	.	.
.	.	.	16ee\	.	16gg\)	.	.	.	.	.
8A\J	.	.	16ee\	.	16gg`\	.	.	.	.	.
.	.	.	16dd\JJ	.	16ff#`\JJ	.	.	.	.	.
!	!	!	!	!	!LO:LB:g=original	!	!	!	!	!
=22	=22	=22	=22	=22	=22	=22	=22	=22	=22	=22
8A\L	4	.	16cc#\LL	.	16ee\LL	.	2r	.	2r	.
.	.	.	16ee\	.	16gg\	.	.	.	.	.
8A\	.	.	16ee\	.	16gg\	.	.	.	.	.
.	.	.	16ee\JJ	.	16gg\JJ	.	.	.	.	.
8A\	.	.	16ee\LL	.	(16gg\LL	.	.	.	.	.
.	.	.	16dd\	.	16ff#\	.	.	.	.	.
8A\J	.	.	16dd\	.	16ff#\	.	.	.	.	.
.	.	.	16cc#\JJ	.	16ee\JJ)	.	.	.	.	.
=23	=23	=23	=23	=23	=23	=23	=23	=23	=23	=23
8AA/L	3	.	16d/LL	.	16f#/LL	.	2r	.	2r	.
.	.	.	16f#/	.	16a/	.	.	.	.	.
8AA/	.	.	16f#/	.	16a/	.	.	.	.	.
.	.	.	16f#/	.	16a/	.	.	.	.	.
8AA/	.	.	16f#/JJ	.	16a/JJ	.	.	.	.	.
.	.	.	16e/LL	.	(16g/LL	.	.	.	.	.
8AA/J	.	.	16e/	.	16g/	.	.	.	.	.
.	.	.	16d/JJ	.	16f#/JJ)	.	.	.	.	.
=24	=24	=24	=24	=24	=24	=24	=24	=24	=24	=24
8AA/L	4	.	16c#/LL	.	16e/LL	.	2r	.	2r	.
.	.	.	16e/	.	16g/	.	.	.	.	.
8AA/	.	.	16e/	.	16g/	.	.	.	.	.
.	.	.	16e/JJ	.	16g/JJ	.	.	.	.	.
8AA/	.	.	16e/LL	.	16g/LL	.	.	.	.	.
.	.	.	16d/	.	16f#/	.	.	.	.	.
8AA/J	.	.	16d/	.	16f#/	.	.	.	.	.
.	.	.	16c#/JJ	.	16e/JJ	.	.	.	.	.
!	!	!	!LO:LB:g=original	!	!	!	!	!	!	!
=25	=25	=25	=25	=25	=25	=25	=25	=25	=25	=25
8F#\L	.	.	8f#/L	.	8f#/L	.	2r	.	2r	.
16E\L	.	.	16e/L	.	16e/L	.	.	.	.	.
16D\JJ	.	.	16d/JJ	.	16d/JJ	.	.	.	.	.
!	!	!	!LO:TX:t=P:problem=mixed beam	!	!LO:TX:t=P:problem=mixed beam	!	!	!	!	!
8A\L	.	.	8a\L	.	8a\L	.	.	.	.	.
8AA/J	.	.	8A/J	.	8A/J	.	.	.	.	.
=26	=26	=26	=26	=26	=26	=26	=26	=26	=26	=26
8F#\L	.	.	8f#/L	.	8f#/L	.	2r	.	2r	.
16E\L	.	.	16e/L	.	16e/L	.	.	.	.	.
16D\JJ	.	.	16d/JJ	.	16d/JJ	.	.	.	.	.
!	!	!	!LO:TX:t=P:problem=mixed beam	!	!LO:TX:t=P:problem=mixed beam	!	!	!	!	!
8A\L	.	.	8a\L	.	8a\L	.	.	.	.	.
8AA/J	.	.	8A/J	.	8A/J	.	.	.	.	.
=27	=27	=27	=27	=27	=27	=27	=27	=27	=27	=27
!	!	!	!LO:TX:a:t=Finis	!	!	!	!LO:TX:t=P:problem=pojedyncza kreska taktowa	!	!LO:TX:t=P:problem=pojedyncza kreska taktowa	!
8F#\L	.	.	8f#/L	.	8f#/L	.	2r	.	2r	.
!LO:TX:a:t=Finis	!	!	!	!	!	!	!	!	!	!
16E\L	.	.	16e/L	.	16e/L	.	.	.	.	.
16D\JJ	.	.	16d/JJ	.	16d/JJ	.	.	.	.	.
!	!	!	!	!	!LO:TX:a:t=Finis	!	!	!	!	!
!	!	!	!LO:TX:t=P:problem=mixed beam	!	!LO:TX:t=P:problem=mixed beam	!	!	!	!	!
8A\L	.	.	8a\L	.	8a\L	.	.	.	.	.
8AA/J	.	.	8A/J	.	8A/J	.	.	.	.	.
!LO:LB:g=original	!	!	!	!	!	!	!	!	!	!
=28||	=28||	=28||	=28||	=28||	=28||	=28||	=28||:	=28||	=28||	=28||
8D\	.	.	8d/L	.	8d/L	.	4dd\	O	4dd\	O
!	!	!	!	!	!	!LO:DY:b	!	!	!	!
!	!	!	!	!LO:DY:b:t=pp.	!	!	!	!	!	!
8r	.	.	8f#/	pp	8a/	pp	.	.	.	.
*Xtremolo	*	*	*	*	*	*	*	*	*	*
!	!	!LO:DY:b:t=piano	!	!	!	!	!	!	!	!
8D/L	.	p	8f#/	.	8a/	.	16dd\LL	glo-	16dd\LL	glo-
.	.	.	.	.	.	.	16cc#\JJ	.	16ee\JJ	.
!	!	!	!	!	!	!	!LO:N:vis=8	!	!	!
8D/J	.	.	8f#/J	.	8a/J	.	16dd\LL	-ri-	16ff#\LL	-ri-
!	!	!	!	!	!	!	!LO:N:vis=8	!	!	!
.	.	.	.	.	.	.	16ee\JJ	.	16gg\JJ	.
=29	=29	=29	=29	=29	=29	=29	=29	=29	=29	=29
*tremolo	*	*	*tremolo	*	*tremolo	*	*	*	*	*
8D/L	.	.	8f#/L	.	8a/L	.	8ff#\	-o-	8aa\	-o-
8D/	.	.	8f#/	.	8a/	.	8dd\	-sa	8ff#\	-sa
8D/	.	.	8f#/	.	8a/	.	4r	.	4r	.
8D/J	.	.	8f#/J	.	8a/J	.	.	.	.	.
!	!	!	!	!	!LO:LB:g=original	!	!	!	!	!
=30	=30	=30	=30	=30	=30	=30	=30	=30	=30	=30
8C#/L	.	.	8e/L	.	8g/L	.	4ee\	Vir-	4gg\	Vir-
8C#/	.	.	8e/	.	8g/	.	.	.	.	.
8C#/	.	.	8e/	.	8g/	.	16ee\LL	.	16gg\LL	-gi-
.	.	.	.	.	.	.	16dd\	.	16ff#\	.
8C#/J	.	.	8e/J	.	8g/J	.	16ee\	.	16gg\	.
.	.	.	.	.	.	.	16cc#\JJ	.	16ee\JJ	.
=31	=31	=31	=31	=31	=31	=31	=31	=31	=31	=31
!LO:TX:t=P:problem=mixed beam	!	!	!	!	!	!	!	!	!	!
8D\L	.	.	8d/L	.	8f#/L	.	16dd\	-gi-	16ff#\	-num
.	.	.	.	.	.	.	16cc#\	-num	16ee\	.
8DD/	.	.	8d/	.	8f#/	.	8dd\	.	8dd\	.
8DD/	.	.	8d/	.	8f#/	.	4r	.	4r	.
8DD/J	.	.	8d/J	.	8f#/J	.	.	.	.	.
=32	=32	=32	=32	=32	=32	=32	=32:||	=32	=32	=32
!	!	!	!	!	!	!	!LO:TX:t=P:problem=t. 32-35 zapisane repetycją	!	!	!
8D\L	.	.	8f#/L	.	8a/L	.	4dd\yy	O	4dd\	O
8D\	.	.	8f#/	.	8a/	.	.	.	.	.
8D\	.	.	8f#/	.	8a/	.	16dd\LLyy	glo-	16dd\LL	glo-
.	.	.	.	.	.	.	16cc#\JJyy	.	16ee\JJ	.
!	!	!	!	!	!	!	!LO:N:vis=8	!	!	!
8D\J	.	.	8f#/J	.	8a/J	.	16dd\LLyy	-ri-	16ff#\LL	-ri-
!	!	!	!	!	!	!	!LO:N:vis=8	!	!	!
.	.	.	.	.	.	.	16ee\JJyy	.	16gg\JJ	.
!	!	!	!	!	!	!	!	!	!LO:LB:g=original	!
=33	=33	=33	=33	=33	=33	=33	=33	=33	=33	=33
8D\L	.	.	8f#/L	.	8a/L	.	8ff#\yy	-o-	8aa\	-o-
8D\	.	.	8f#/	.	8a/	.	8dd\yy	-sa	8ff#\	-sa
8D\	.	.	8f#/	.	8a/	.	4ryy	.	4r	.
8D\J	.	.	8f#/J	.	8a/J	.	.	.	.	.
=34	=34	=34	=34	=34	=34	=34	=34	=34	=34	=34
8C#/L	.	.	8e/L	.	8g/L	.	4ee\yy	Vir-	4gg\	Vir-
8C#/	.	.	8e/	.	8g/	.	.	.	.	.
8C#/	.	.	8e/	.	8g/	.	16ee\LLyy	.	16gg\LL	.
.	.	.	.	.	.	.	16dd\yy	.	16ff#\	.
8C#/J	.	.	8e/J	.	8g/J	.	16ee\yy	.	16gg\	.
.	.	.	.	.	.	.	16cc#\JJyy	.	16ee\JJ	.
=35	=35	=35	=35	=35	=35	=35	=35	=35	=35	=35
!LO:TX:t=P:problem=mixed beam	!	!	!	!	!	!	!	!	!	!
8D\L	.	.	8d/L	.	8f#/L	.	16dd\yy	-gi-	16ff#\	-gi-
.	.	.	.	.	.	.	16cc#\yy	-num	16ee\	-num
8DD/	.	.	8d/	.	8f#/	.	8dd\yy	.	8dd\	.
8DD/	.	.	8d/	.	8f#/	.	4ryy	.	4r	.
8DD/J	.	.	8d/J	.	8f#/J	.	.	.	.	.
=36	=36	=36	=36	=36	=36||:	=36	=36	=36	=36	=36
!LO:SIC:v:s=8A	!	!	!	!	!	!	!	!	!	!
8BB/L	.	.	8a/L	.	8a/L	.	4a\	Sub-	4cc#\	Sub-
!LO:SIC:v:s=8A	!	!	!	!	!	!	!	!	!	!
8BB/	.	.	8a/	.	8a/	.	.	.	.	.
!LO:SIC:v:s=8A	!	!	!	!	!	!	!	!	!	!
8BB/	.	.	8a/	.	8a/	.	16a\LL	-li-	16cc#\LL	-li-
.	.	.	.	.	.	.	16g#X\	.	16b\	.
!LO:SIC:v:s=8A	!	!	!	!	!	!	!	!	!	!
8BB/J	.	.	8a/J	.	8a/J	.	16a\	-mis	16cc#\	-mis
.	.	.	.	.	.	.	16b\JJ	.	16dd\JJ	.
=37	=37	=37	=37	=37	=37	=37	=37	=37	=37	=37
8AA/L	.	.	8a/L	.	8a/L	.	4cc#\	in-	4ee\	in-
8AA/	.	.	8a/	.	8a/	.	.	.	.	.
8AA/	.	.	8a/	.	8a/	.	16cc#\LL	-ter	16ee\LL	-ter
.	.	.	.	.	.	.	16b\	.	16dd\	.
8AA/J	.	.	8a/J	.	8a/J	.	16cc#\	.	16ee\	.
.	.	.	.	.	.	.	16dd\JJ	.	16ff#\JJ	.
=38	=38	=38	=38	=38	=38	=38	=38	=38	=38	=38
8AA/L	.	.	8a/L	.	8a/L	.	16ee\	Si-	16gg\LL	Si-
.	.	.	.	.	.	.	16dd\	-de-	16ff#\JJ	-de-
8AA/	.	.	8a/	.	8a/	.	8ee\	-ra	8gg\	-ra
8AA/	.	.	8a/	.	8a/	.	4r	.	4r	.
8AA/J	.	.	8a/J	.	8a/J	.	.	.	.	.
!	!	!	!	!	!	!	!	!	!LO:LB:g=original	!
=39	=39	=39	=39	=39	=39	=39	=39	=39	=39	=39
8AA/L	.	.	8a/L	.	8a/L	.	4a\	Sub-	4cc#\	Sub-
8AA/	.	.	8a/	.	8a/	.	.	.	.	.
8AA/	.	.	8a/	.	8a/	.	16a\LL	-li-	16cc#\LL	-li-
.	.	.	.	.	.	.	16g#X\	.	16b\	.
8AA/J	.	.	8a/J	.	8a/J	.	16a\	-mis	16cc#\	-mis
.	.	.	.	.	.	.	16b\JJ	.	16dd\JJ	.
=40	=40	=40	=40	=40	=40	=40	=40	=40	=40	=40
8AA/L	.	.	8a/L	.	8a/L	.	4cc#\	in-	4ee\	in-
8AA/	.	.	8a/	.	8a/	.	.	.	.	.
8AA/	.	.	8a/	.	8a/	.	16cc#\LL	-ter	16ee\LL	-ter
.	.	.	.	.	.	.	16b\	.	16dd\	.
8AA/J	.	.	8a/J	.	8a/J	.	16cc#\	.	16ee\	.
.	.	.	.	.	.	.	16dd\JJ	.	16ff#\JJ	.
=41	=41	=41	=41	=41	=41	=41	=41	=41	=41	=41
8AA/L	.	.	8a/L	.	8a/L	.	16ee\	Si-	16gg\	si-
.	.	.	.	.	.	.	16dd\	-de-	16ff#\	-de-
8AA/	.	.	8a/	.	8a/	.	8ee\	-ra	8gg\	-ra
8AA/	.	.	8a/	.	8a/	.	4r	.	4r	.
8AA/J	.	.	8a/J	.	8a/J	.	.	.	.	.
!	!	!	!LO:LB:g=original	!	!	!	!LO:LB:g=original	!	!	!
=42	=42	=42	=42	=42	=42	=42	=42	=42	=42	=42
*	*	*	*Xtremolo	*	*Xtremolo	*	*	*	*	*
8AA/L	.	.	8d/L	.	8f#/L	.	8dd\	in-	8ff#\	in-
8AA/	.	.	8d/	.	8f#/	.	8a\	-ter	16ee\LL	-ter
.	.	.	.	.	.	.	.	.	16dd\JJ	.
8AA/	.	.	8c#/	.	8e/	.	8.a\	Si-	8.ee\	si-
8AA/J	.	.	8c#/J	.	8e/J	.	.	.	.	.
.	.	.	.	.	.	.	16a\	-de-	16ff#\	-de-
*	*	*	*tremolo	*	*tremolo	*	*	*	*	*
!LO:LB:g=original	!	!	!	!	!	!	!	!	!	!
=43	=43	=43	=43	=43	=43	=43	=43	=43	=43	=43
8DD/L	.	.	8d/L	.	8f#/L	.	4f#/	-ra	4dd\	-ra
8DD/	.	.	8d/	.	8f#/	.	.	.	.	.
8DD/	.	.	8d/	.	8f#/	.	4r	.	4r	.
8DD/J	.	.	8d/J	.	8f#/J	.	.	.	.	.
*	*	*	*	*	*Xtremolo	*	*	*	*	*
=44	=44	=44	=44	=44	=44:||	=44	=44	=44	=44	=44
!	!	!	!	!	!LO:TX:t=P:problem=t. 44-51 zapisane repetycją	!	!	!	!	!
8AA/L	.	.	8a/L	.	8a/Lyy	.	4a\	Sub-	4cc#\	Sub-
8AA/	.	.	8a/	.	8a/yy	.	.	.	.	.
8AA/	.	.	8a/	.	8a/yy	.	16a\LL	-li-	16cc#\LL	-li-
.	.	.	.	.	.	.	16g#X\	.	16b\	.
8AA/J	.	.	8a/J	.	8a/Jyy	.	16a\	-mis	16cc#\	-mis
.	.	.	.	.	.	.	16b\JJ	.	16dd\JJ	.
=45	=45	=45	=45	=45	=45	=45	=45	=45	=45	=45
8AA/L	.	.	8a/L	.	8a/Lyy	.	4cc#\	in-	4ee\	in-
8AA/	.	.	8a/	.	8a/yy	.	.	.	.	.
8AA/	.	.	8a/	.	8a/yy	.	16cc#\LL	-ter[[a]]	16ee\LL	-ter
.	.	.	.	.	.	.	16b\	.	16dd\	.
8AA/J	.	.	8a/J	.	8a/Jyy	.	16cc#\	.	16ee\	.
.	.	.	.	.	.	.	16dd\JJ	.	16ff#\JJ	.
!	!	!	!	!	!	!	!	!	!LO:LB:g=original	!
=46	=46	=46	=46	=46	=46	=46	=46	=46	=46	=46
8AA/L	.	.	8a/L	.	8a/Lyy	.	16ee\	Si-	16gg\LL	si-
.	.	.	.	.	.	.	16dd\	-de-	16ff#\JJ	-de-
8AA/	.	.	8a/	.	8a/yy	.	8ee\	-ra	8gg\	-ra
8AA/	.	.	8a/	.	8a/yy	.	4r	.	4r	.
8AA/J	.	.	8a/J	.	8a/Jyy	.	.	.	.	.
=47	=47	=47	=47	=47	=47	=47	=47	=47	=47	=47
8AA/L	.	.	8a/L	.	8a/Lyy	.	4a\	Sub-	4cc#\	sub-
8AA/	.	.	8a/	.	8a/yy	.	.	.	.	.
8AA/	.	.	8a/	.	8a/yy	.	16a\LL	-li-	16cc#\LL	-li-
.	.	.	.	.	.	.	16g#X\	.	16b\	.
8AA/J	.	.	8a/J	.	8a/Jyy	.	16a\	-mis	16cc#\	-mis
.	.	.	.	.	.	.	16b\JJ	.	16dd\JJ	.
=48	=48	=48	=48	=48	=48	=48	=48	=48	=48	=48
8AA/L	.	.	8a/L	.	8a/Lyy	.	4cc#\	in-	4ee\	in-
8AA/	.	.	8a/	.	8a/yy	.	.	.	.	.
8AA/	.	.	8a/	.	8a/yy	.	16cc#\LL	-ter	16ee\LL	-ter
.	.	.	.	.	.	.	16b\	.	16dd\	.
8AA/J	.	.	8a/J	.	8a/Jyy	.	16cc#\	.	16ee\	.
.	.	.	.	.	.	.	16dd\JJ	.	16ff#\JJ	.
!	!	!	!	!	!	!	!LO:LB:g=original	!	!	!
=49	=49	=49	=49	=49	=49	=49	=49	=49	=49	=49
8AA/L	.	.	8a/L	.	8a/Lyy	.	16ee\	Si-	16gg\LL	si-
.	.	.	.	.	.	.	16dd\	-de-	16ff#\JJ	-de-
8AA/	.	.	8a/	.	8a/yy	.	8ee\	-ra	8gg\	-ra
8AA/	.	.	8a/	.	8a/yy	.	4r	.	4r	.
8AA/J	.	.	8a/J	.	8a/Jyy	.	.	.	.	.
=50	=50	=50	=50	=50	=50	=50	=50	=50	=50	=50
*	*	*	*Xtremolo	*	*	*	*	*	*	*
8AA/L	.	.	8d/L	.	8f#/Lyy	.	8dd\	in-	8ff#\	in-
8AA/	.	.	8d/	.	8f#/yy	.	8a\	-ter	16ee\LL	-ter
.	.	.	.	.	.	.	.	.	16dd\JJ	.
8AA/	.	.	8c#/	.	8e/yy	.	8.a\	si-	8.ee\L	si-
8AA/J	.	.	8c#/J	.	8e/Jyy	.	.	.	.	.
.	.	.	.	.	.	.	16a\	-de-	16ff#\Jk	-de-
=51	=51	=51	=51	=51	=51	=51	=51	=51	=51	=51
*	*	*	*tremolo	*	*	*	*	*	*	*
8DD/L	.	.	8d/L	.	8f#/Lyy	.	4f#/	-ra	4dd\	-ra
8DD/	.	.	8d/	.	8f#/yy	.	.	.	.	.
8DD/	.	.	8d/	.	8f#/yy	.	4r	.	4r	.
8DD/J	.	.	8d/J	.	8f#/Jyy	.	.	.	.	.
=52	=52	=52	=52	=52	=52	=52	=52	=52	=52	=52
*	*	*	*Xtremolo	*	*	*	*	*	*	*
8D\L	3	.	8g/L	.	8b\L	.	16f#/LL	qvi	16a\LL	qvi
.	.	.	.	.	.	.	16g/JJ	.	16b\JJ	.
8D\	.	.	8g/	.	8b\	.	4a/	te	4ccn\	te
8D\	.	.	8f#/	.	8a\	.	.	.	.	.
8D\J	.	.	8f#/J	.	8a\J	.	16g/LL	crae-	16b\LL	crae-
.	.	.	.	.	.	.	16f#/JJ	.	16a\JJ	.
!	!	!	!	!	!	!	!	!	!LO:LB:g=original	!
=53	=53	=53	=53	=53	=53	=53	=53	=53	=53	=53
8D\L	4	.	8g/L	.	8b\L	.	16g\LL	-a-	16b\LL	-a-
.	.	.	.	.	.	.	16a\JJ	.	16ccn\JJ	.
8D\	.	.	8g/	.	8b\	.	4b\	.	4dd\	.
8D\	.	.	8f#/	.	8a\	.	.	.	.	.
8D\J	.	.	8f#/J	.	8a\J	.	8a\	-vit	8ccn\	-vit
=54	=54	=54	=54	=54	=54	=54	=54	=54	=54	=54
*	*	*	*tremolo	*	*tremolo	*	*	*	*	*
8D\L	3	.	8g/L	.	8b\L	.	16g/LL	par-	16b\LL	par-
.	.	.	.	.	.	.	16f#/JJ	-vu-	16a\JJ	-vu-
8D\	.	.	8g/	.	8b\	.	8g/	-lum	8g\	-lum
!	!	!	!	!	!	!	!	!	!LO:TX:t=P:problem=4r poprawiona na 8r	!
!	!	!	!	!	!	!	!LO:LB:g=original	!	!	!
8D\	.	.	8g/	.	8b\	.	8r	.	8r	.
*	*	*	*	*	*	*	*	*	*	*ij
8D\J	.	.	8g/J	.	8b\J	.	16f#/LL	par-	16a\LL	par-
.	.	.	.	.	.	.	16a/JJ	.	16ccn\JJ	.
=55	=55	=55	=55	=55	=55	=55	=55	=55	=55	=55
8GG/L	.	.	8g/L	.	8b\L	.	16g/	-vu-	16b\LL	-vu-
.	.	.	.	.	.	.	16f#/	-lum	16a\JJ	.
8GG/	.	.	8g/	.	8b\	.	8g/	.	8g/	-lum
8GG/	.	.	8g/	.	8b\	.	4r	.	4r	.
8GG/J	.	.	8g/J	.	8b\J	.	.	.	.	.
*	*	*	*Xtremolo	*	*Xtremolo	*	*	*	*	*Xij
!	!	!	!	!	!LO:LB:g=original	!	!	!	!	!
=56	=56	=56	=56	=56	=56	=56	=56	=56	=56	=56
8E\L	3	.	8a/L	.	8cc#\L	.	16g#X/LL	qvi	16b\LL	qvi
.	.	.	.	.	.	.	16a/JJ	.	16cc#X\JJ	.
8E\	.	.	8a/	.	8cc#\	.	4b\	te	4dd\	te
!	!	!	!LO:SIC:v:s=8g#	!	!	!	!	!	!	!
8E\	.	.	8g/	.	8b\	.	.	.	.	.
!	!	!	!LO:SIC:v:s=8g#	!	!	!	!	!	!	!
8E\J	.	.	8g/J	.	8b\J	.	16a\LL	crae-	16cc#\LL	crae-
.	.	.	.	.	.	.	16g#\JJ	.	16b\JJ	.
=57	=57	=57	=57	=57	=57	=57	=57	=57	=57	=57
8E\L	4	.	8a/L	.	8cc#\L	.	16a\LL	-a-	16cc#\LL	-a-
.	.	.	.	.	.	.	16b\JJ	.	16dd\JJ	.
8E\	.	.	8a/	.	8cc#\	.	4cc#\	.	4ee\	.
!	!	!	!LO:SIC:v:s=8g#	!	!	!	!	!	!	!
8E\	.	.	8g/	.	8b\	.	.	.	.	.
!	!	!	!LO:SIC:v:s=8g#	!	!	!	!	!	!	!
8E\J	.	.	8g/J	.	8b\J	.	16b\LL	-vit	8dd\	-vit
.	.	.	.	.	.	.	16a\JJ	.	.	.
!	!	!	!LO:LB:g=original	!	!	!	!	!	!	!
=58	=58	=58	=58	=58	=58	=58	=58	=58	=58	=58
*	*	*	*tremolo	*	*tremolo	*	*	*	*	*
8E\L	3	.	8a/L	.	8cc#\L	.	16a\	par-	16cc#\LL	par-
.	.	.	.	.	.	.	16g#X\	-vu-	16b\JJ	.
8E\	.	.	8a/	.	8cc#\	.	8a\	-lum	8a\	-vu-
8E\	.	.	8a/	.	8cc#\	.	8r	.	8r	.
8E\J	.	.	8a/J	.	8cc#\J	.	16g#\LL	par-	16b\LL	-lum
.	.	.	.	.	.	.	16b\JJ	.	16dd\JJ	.
!	!	!	!	!	!	!	!LO:LB:g=original	!	!LO:LB:g=original	!
=59	=59	=59	=59	=59	=59	=59	=59	=59	=59	=59
8AA/L	.	.	8a/L	.	8cc#\L	.	16a\LL	-vu-	16cc#\LL	par-
.	.	.	.	.	.	.	16g#X\JJ	.	16b\JJ	-vu-
8AA/	.	.	8a/	.	8cc#\	.	8a\	-lum	8a\	-lum
8AA/	.	.	8a/	.	8cc#\	.	4r	.	4r	.
8AA/J	.	.	8a/J	.	8cc#\J	.	.	.	.	.
=60	=60	=60	=60	=60	=60	=60	=60||:	=60	=60	=60
8AA/L	.	.	8e/L	.	8g/L	.	16cc#\LL	Lac-	16ee\LL	lac-
.	.	.	.	.	.	.	16ee\JJ	.	16ff#\JJ	.
!	!	!	!	!	!	!	!LO:SIC:v:l:s=-ten-	!	!LO:SIC:v:l:s=-ten-	!
8C#/	.	.	8e/	.	8g/	.	4ee\	-tan-	4gg\	-tan-
8C#/	.	.	8e/	.	8g/	.	.	.	.	.
8C#/J	.	.	8e/J	.	8g/J	.	8cc#\	-te	8ee\	-te
=61	=61	=61	=61	=61	=61	=61	=61	=61	=61	=61
8D\L	.	.	8f#/L	.	8a/L	.	16dd\LL	nu-	16ff#\LL	nu-
.	.	.	.	.	.	.	16ee\JJ	.	16gg\JJ	.
8D\	.	.	8f#/	.	8a/	.	8ff#\	-tris	8aa\	-tris
8D\	.	.	8f#/	.	8a/	.	4r	.	4r	.
8D\J	.	.	8f#/J	.	8a/J	.	.	.	.	.
!LO:LB:g=original	!	!	!	!	!	!	!	!	!	!
=62	=62	=62	=62	=62	=62	=62	=62	=62	=62	=62
8AA/L	.	.	8e/L	.	8g/L	.	16cc#\LL	lac-	16ee\LL	lac-
!	!	!	!	!	!	!	!LO:TX:t=P:problem=16ee poprawione na 16dd	!	!	!
.	.	.	.	.	.	.	16dd\JJ	.	16ff#\JJ	.
!	!	!	!	!	!	!	!LO:SIC:v:l:s=-ten-	!	!LO:SIC:v:l:s=-ten-	!
8C#/	.	.	8e/	.	8g/	.	4ee\	-tan-	4gg\	-tan-
8C#/	.	.	8e/	.	8g/	.	.	.	.	.
8C#/J	.	.	8e/J	.	8g/J	.	8cc#\	-te	8ee\	-te
=63	=63	=63	=63	=63	=63	=63	=63	=63	=63	=63
8D/L	.	.	8f#/L	.	8a/L	.	16dd\LL	nu-	16ff#\LL	nu-
.	.	.	.	.	.	.	16ee\JJ	.	16gg\JJ	.
8D/	.	.	8f#/	.	8a/	.	8ff#\	-tris	8aa\	-tris
8D/	.	.	8f#/	.	8a/	.	4r	.	4r	.
8D/J	.	.	8f#/J	.	8a/J	.	.	.	.	.
=64	=64	=64	=64	=64	=64	=64	=64	=64	=64	=64
*	*	*	*Xtremolo	*	*	*	*	*	*	*
8D\L	.	.	8d/L	.	8f#/L	.	8dd\	nu-	8ff#\	nu-
8DD/	.	.	8d/	.	8g/	.	8a\	-tris	16ee\LL	-tris
.	.	.	.	.	.	.	.	.	16dd\JJ	.
!	!	!	!	!	!	!	!LO:LB:g=original	!	!	!
8AA/	.	.	8c#/	.	8a/	.	8.a\	u-	8.ee\	u-
8AA/J	.	.	8c#/J	.	8A/J	.	.	.	.	.
.	.	.	.	.	.	.	16a\	-be-	16ff#\	-be-
!	!	!	!	!	!	!	!	!	!LO:LB:g=original	!
*	*	*	*tremolo	*	*	*	*	*	*	*
=65	=65	=65	=65	=65	=65	=65	=65	=65	=65	=65
8DD/L	.	.	8d/L	.	8d/L	.	4f#/	-re	4dd\	-re
8DD/	.	.	8d/	.	8f#/	.	.	.	.	.
8DD/	.	.	8d/	.	8f#/	.	4r	.	4r	.
8DD/J	.	.	8d/J	.	8f#/J	.	.	.	.	.
=66	=66	=66	=66	=66	=66	=66	=66:||	=66	=66	=66
!	!	!	!	!	!	!	!LO:TX:t=P:problem=t. 66-71 zapisane repetycją	!	!	!
8AA/L	.	.	8e/L	.	8g/L	.	16cc#\LLyy	Lac-	16ee\LL	lac-
.	.	.	.	.	.	.	16ee\JJyy	.	16ff#\JJ	.
!	!	!	!	!	!	!	!yLO:SIC:v:l:s=-ten-	!	!LO:SIC:v:l:s=-ten-	!
8C#/	.	.	8e/	.	8g/	.	4ee\yy	-tan-	4gg\	-tan-
8C#/	.	.	8e/	.	8g/	.	.	.	.	.
8C#/J	.	.	8e/J	.	8g/J	.	8cc#\yy	-te	8ee\	-te
=67	=67	=67	=67	=67	=67	=67	=67	=67	=67	=67
8D/L	.	.	8f#/L	.	8a/L	.	16dd\LLyy	nu-	16ff#\LL	nu-
.	.	.	.	.	.	.	16ee\JJyy	.	16gg\JJ	.
8D/	.	.	8f#/	.	8a/	.	8ff#\yy	-tris	8aa\	-tris
8D/	.	.	8f#/	.	8a/	.	4ryy	.	4r	.
8D/J	.	.	8f#/J	.	8a/J	.	.	.	.	.
=68	=68	=68	=68	=68	=68	=68	=68	=68	=68	=68
8AA/L	.	.	8e/L	.	8g/L	.	16cc#\LLyy	lac-	16ee\LL	lac-
!	!	!	!	!	!	!	!yLO:TX:t=P:problem=16ee poprawione na 16dd	!	!	!
.	.	.	.	.	.	.	16dd\JJyy	.	16ff#\JJ	.
!	!	!	!	!	!	!	!yLO:SIC:v:l:s=-ten-	!	!LO:SIC:v:l:s=-ten-	!
8C#/	.	.	8e/	.	8g/	.	4ee\yy	-tan-	4gg\	-tan-
8C#/	.	.	8e/	.	8g/	.	.	.	.	.
8C#/J	.	.	8e/J	.	8g/J	.	8cc#\yy	-te	8ee\	-te
=69	=69	=69	=69	=69	=69	=69	=69	=69	=69	=69
8D\L	.	.	8f#/L	.	8a/L	.	16dd\LLyy	nu-	16ff#\LL	nu-
.	.	.	.	.	.	.	16ee\JJyy	.	16gg\JJ	.
8D\	.	.	8f#/	.	8a/	.	8ff#\yy	-tris	8aa\	-tris
8D\	.	.	8f#/	.	8a/	.	4ryy	.	4r	.
8D\J	.	.	8f#/J	.	8a/J	.	.	.	.	.
=70	=70	=70	=70	=70	=70	=70	=70	=70	=70	=70
*	*	*	*Xtremolo	*	*	*	*	*	*	*
8D\L	.	.	8d/L	.	8f#/L	.	8dd\yy	nu-	8ff#\	nu-
!LO:TX:t=P:problem=8AA poprawione na 8DD	!	!	!	!	!	!	!	!	!	!
8DD/	.	.	8d/	.	8g/	.	8a\yy	-tris	16ee\LL	-tris
.	.	.	.	.	.	.	.	.	16dd\JJ	.
8AA/	.	.	8c#/	.	8a/	.	8.a\yy	u-	8.ee\	u-
8AA/J	.	.	8c#/J	.	8A/J	.	.	.	.	.
.	.	.	.	.	.	.	16a\yy	-be-	16ff#\	-be-
!	!	!	!	!	!LO:LB:g=original	!	!	!	!	!
=71||:	=71	=71	=71	=71	=71	=71	=71	=71	=71	=71
*	*	*	*tremolo	*	*	*	*	*	*	*
8D\L	.	.	8ff#\L	.	16dd\LL	.	4f#/yy	-re	4dd\	-re
.	.	.	.	.	16dd\	.	.	.	.	.
8D\	.	.	8ff#\	.	16dd\	.	.	.	.	.
.	.	.	.	.	16dd\	.	.	.	.	.
8D\	.	.	8ff#\	.	16dd\	.	4ryy	.	4r	.
.	.	.	.	.	16dd\	.	.	.	.	.
8D\J	.	.	8ff#\J	.	16dd\	.	.	.	.	.
.	.	.	.	.	16dd\JJ	.	.	.	.	.
=72	=72	=72	=72	=72	=72	=72	=72	=72	=72	=72
!	!	!	!	!	!	!	!	!	!LO:TX:t=P:problem=26. poprawione na 2, brak t. 74-97 	!
!	!	!	!	!	!	!	!LO:TX:a:t=26	!	!LO:TX:a:t=2	!
8C#\L	.	.	8ee\L	.	16aa\LL	.	2r	.	2r	.
.	.	.	.	.	16aa\	.	.	.	.	.
8C#\	.	.	8ee\	.	16aa\	.	.	.	.	.
.	.	.	.	.	16aa\	.	.	.	.	.
8C#\	.	.	8ee\	.	16aa\	.	.	.	.	.
.	.	.	.	.	16aa\	.	.	.	.	.
8C#\J	.	.	8ee\J	.	16aa\	.	.	.	.	.
.	.	.	.	.	16aa\JJ	.	.	.	.	.
=73	=73	=73	=73	=73	=73	=73	=73	=73	=73	=73
8BB/L	.	.	8gg#X\L	.	16ddd\LL	.	2r	.	2r	.
.	.	.	.	.	16ddd\	.	.	.	.	.
8BB/	.	.	8gg#\	.	16ddd\	.	.	.	.	.
.	.	.	.	.	16ddd\	.	.	.	.	.
8BB/	.	.	8gg#\	.	16ddd\	.	.	.	.	.
.	.	.	.	.	16ddd\	.	.	.	.	.
8BB/J	.	.	8gg#\J	.	16ddd\	.	.	.	.	.
.	.	.	.	.	16ddd\JJ	.	.	.	.	.
!	!	!	!	!	!	!	!	!	!LO:LB:g=original	!
=74	=74	=74	=74	=74	=74	=74	=74	=74	=74	=74
!LO:TX:t=P:problem=mixed beam	!	!	!	!	!	!	!	!	!	!
8AA/L	.	.	4aa\	.	16ccc#\LL	.	2r	.	2ryy	.
.	.	.	.	.	16bb\JJ	.	.	.	.	.
16A\L	.	.	.	.	4aa\	.	.	.	.	.
16B\JJ	.	.	.	.	.	.	.	.	.	.
16A\LL	.	.	4r	.	.	.	.	.	.	.
16G\	.	.	.	.	.	.	.	.	.	.
16F#\	.	.	.	.	8a/	.	.	.	.	.
16E\JJ	.	.	.	.	.	.	.	.	.	.
!	!	!	!LO:LB:g=original	!	!	!	!	!	!	!
=75:||	=75	=75	=75	=75	=75	=75	=75	=75	=75	=75
*Xtremolo	*	*	*	*	*	*	*	*	*	*
!LO:TX:t=P:problem=t. 75-78 zapisane repetycją	!	!	!	!	!	!	!	!	!	!
!	!	!	!	!LO:DY:b:t=p.	!	!	!	!	!	!
8D\Lyy	.	.	8f#/L	p	16d/LL	.	2r	.	2ryy	.
.	.	.	.	.	16d/	.	.	.	.	.
8D\yy	.	.	8f#/	.	16d/	.	.	.	.	.
.	.	.	.	.	16d/	.	.	.	.	.
8D\yy	.	.	8f#/	.	16d/	.	.	.	.	.
.	.	.	.	.	16d/	.	.	.	.	.
8D\Jyy	.	.	8f#/J	.	16d/	.	.	.	.	.
.	.	.	.	.	16d/JJ	.	.	.	.	.
=76	=76	=76	=76	=76	=76	=76	=76	=76	=76	=76
8C#\Lyy	.	.	8e/L	.	16a/LL	.	2r	.	2ryy	.
.	.	.	.	.	16a/	.	.	.	.	.
8C#\yy	.	.	8e/	.	16a/	.	.	.	.	.
.	.	.	.	.	16a/	.	.	.	.	.
8C#\yy	.	.	8e/	.	16a/	.	.	.	.	.
.	.	.	.	.	16a/	.	.	.	.	.
8C#\Jyy	.	.	8e/J	.	16a/	.	.	.	.	.
.	.	.	.	.	16a/JJ	.	.	.	.	.
=77	=77	=77	=77	=77	=77	=77	=77	=77	=77	=77
8BB/Lyy	.	.	8g#X/L	.	16dd\LL	.	2r	.	2ryy	.
.	.	.	.	.	16dd\	.	.	.	.	.
8BB/yy	.	.	8g#/	.	16dd\	.	.	.	.	.
.	.	.	.	.	16dd\	.	.	.	.	.
8BB/yy	.	.	8g#/	.	16dd\	.	.	.	.	.
.	.	.	.	.	16dd\	.	.	.	.	.
8BB/Jyy	.	.	8g#/J	.	16dd\	.	.	.	.	.
.	.	.	.	.	16dd\JJ	.	.	.	.	.
=78	=78	=78	=78	=78	=78	=78	=78	=78	=78	=78
!yLO:TX:t=P:problem=mixed beam	!	!	!	!	!	!	!	!	!	!
8AA\Lyy	.	.	4a/	.	16cc#\LL	.	2r	.	2ryy	.
.	.	.	.	.	16b\JJ	.	.	.	.	.
16A\Lyy	.	.	.	.	4a/	.	.	.	.	.
16B\JJyy	.	.	.	.	.	.	.	.	.	.
16A\LLyy	.	.	4r	.	.	.	.	.	.	.
16G\yy	.	.	.	.	.	.	.	.	.	.
16F#\yy	.	.	.	.	8aa\	.	.	.	.	.
16E\JJyy	.	.	.	.	.	.	.	.	.	.
!LO:LB:g=original	!	!	!	!	!	!	!	!	!	!
=79	=79	=79	=79	=79	=79	=79	=79	=79	=79	=79
*tremolo	*	*	*	*	*	*	*	*	*	*
8G\L	.	.	16gg\LL	.	16bb\LL	.	2r	.	2ryy	.
.	.	.	16gg\	.	16bb\	.	.	.	.	.
8G\	.	.	16gg\	.	16bb\	.	.	.	.	.
.	.	.	16gg\	.	16bb\	.	.	.	.	.
8G\	.	.	16gg\	.	16bb\	.	.	.	.	.
.	.	.	16gg\	.	16bb\	.	.	.	.	.
8G\J	.	.	16gg\	.	16bb\	.	.	.	.	.
.	.	.	16gg\JJ	.	16bb\JJ	.	.	.	.	.
=80	=80	=80	=80	=80	=80	=80	=80	=80	=80	=80
8F#\L	.	.	16ff#\LL	.	16aa\LL	.	2r	.	2ryy	.
.	.	.	16ff#\	.	16aa\	.	.	.	.	.
8F#\	.	.	16ff#\	.	16aa\	.	.	.	.	.
.	.	.	16ff#\	.	16aa\	.	.	.	.	.
8F#\	.	.	16ff#\	.	16aa\	.	.	.	.	.
.	.	.	16ff#\	.	16aa\	.	.	.	.	.
8F#\J	.	.	16ff#\	.	16aa\	.	.	.	.	.
.	.	.	16ff#\JJ	.	16aa\JJ	.	.	.	.	.
=81	=81	=81	=81	=81	=81	=81	=81	=81	=81	=81
8E\L	.	.	16ee\LL	.	16gg\LL	.	2r	.	2ryy	.
.	.	.	16ee\	.	16gg\	.	.	.	.	.
8E\	.	.	16ee\	.	16gg\	.	.	.	.	.
.	.	.	16ee\	.	16gg\	.	.	.	.	.
8E\	.	.	16ee\	.	16gg\	.	.	.	.	.
.	.	.	16ee\	.	16gg\	.	.	.	.	.
8E\J	.	.	16ee\	.	16gg\	.	.	.	.	.
.	.	.	16ee\JJ	.	16gg\JJ	.	.	.	.	.
=82	=82	=82	=82	=82	=82	=82	=82	=82	=82	=82
8D\L	.	.	16dd\LL	.	16ff#\LL	.	2r	.	2ryy	.
.	.	.	16dd\	.	16ee\JJ	.	.	.	.	.
8D\	.	.	16dd\	.	4dd\	.	.	.	.	.
.	.	.	16dd\	.	.	.	.	.	.	.
8D\	.	.	16dd\	.	.	.	.	.	.	.
.	.	.	16dd\	.	.	.	.	.	.	.
8D\J	.	.	16dd\	.	8a/	.	.	.	.	.
.	.	.	16dd\JJ	.	.	.	.	.	.	.
=83	=83	=83	=83	=83	=83	=83	=83	=83	=83	=83
8G\L	.	.	16g/LL	.	16b/LL	.	2r	.	2ryy	.
.	.	.	16g/	.	16b/	.	.	.	.	.
8G\	.	.	16g/	.	16b/	.	.	.	.	.
.	.	.	16g/	.	16b/	.	.	.	.	.
8G\	.	.	16g/	.	16b/	.	.	.	.	.
.	.	.	16g/	.	16b/	.	.	.	.	.
8G\J	.	.	16g/	.	16b/	.	.	.	.	.
.	.	.	16g/JJ	.	16b/JJ	.	.	.	.	.
=84	=84	=84	=84	=84	=84	=84	=84	=84	=84	=84
8F#\L	.	.	16f#/LL	.	16a/LL	.	2r	.	2ryy	.
.	.	.	16f#/	.	16a/	.	.	.	.	.
8F#\	.	.	16f#/	.	16a/	.	.	.	.	.
.	.	.	16f#/	.	16a/	.	.	.	.	.
8F#\	.	.	16f#/	.	16a/	.	.	.	.	.
.	.	.	16f#/	.	16a/	.	.	.	.	.
8F#\J	.	.	16f#/	.	16a/	.	.	.	.	.
.	.	.	16f#/JJ	.	16a/JJ	.	.	.	.	.
=85	=85	=85	=85	=85	=85	=85	=85	=85	=85	=85
8E\L	.	.	16e/LL	.	16g/LL	.	2r	.	2ryy	.
.	.	.	16e/	.	16g/	.	.	.	.	.
8E\	.	.	16e/	.	16g/	.	.	.	.	.
.	.	.	16e/	.	16g/	.	.	.	.	.
8E\	.	.	16e/	.	16g/	.	.	.	.	.
.	.	.	16e/	.	16g/	.	.	.	.	.
8E\J	.	.	16e/	.	16g/	.	.	.	.	.
.	.	.	16e/JJ	.	16g/JJ	.	.	.	.	.
!	!	!	!	!	!LO:LB:g=original	!	!	!	!	!
=86	=86	=86	=86	=86	=86	=86	=86	=86	=86	=86
8D\L	.	.	8d/L	.	16f#/LL	.	2r	.	2ryy	.
.	.	.	.	.	16e/J	.	.	.	.	.
!	!	!	!	!	!LO:TX:t=P:problem=brak caudy	!	!	!	!	!
8D\	.	.	8d/	.	8d/J	.	.	.	.	.
8D\	.	.	8d/	.	4d/	.	.	.	.	.
8D\J	.	.	8d/J	.	.	.	.	.	.	.
=87	=87	=87	=87	=87	=87	=87	=87	=87	=87	=87
8D\L	.	.	16dd\LL	.	16ff#\LL	.	2r	.	2ryy	.
.	.	.	16ff#\	.	16aa\	.	.	.	.	.
8F#\	.	.	16ff#\	.	16aa\	.	.	.	.	.
.	.	.	16ff#\JJ	.	16aa\JJ	.	.	.	.	.
8F#\	.	.	16ff#\LL	.	16aa\LL	.	.	.	.	.
.	.	.	16aa\	.	16cccn\	.	.	.	.	.
8F#\J	.	.	16aa\	.	16ccc\	.	.	.	.	.
.	.	.	16aa\JJ	.	16ccc\JJ	.	.	.	.	.
=88	=88	=88	=88	=88	=88	=88	=88	=88	=88	=88
!LO:TX:t=P:problem=mixed beam	!	!	!	!	!	!	!	!	!	!
8G\L	.	.	16gg\LL	.	16bb\LL	.	2r	.	2ryy	.
.	.	.	16g/	.	16gg\	.	.	.	.	.
8D\	.	.	16g/	.	16gg\	.	.	.	.	.
.	.	.	16g/JJ	.	16gg\JJ	.	.	.	.	.
!	!	!	!LO:LB:g=original	!	!	!	!	!	!	!
8GG/	.	.	16g/LL	.	16gg\LL	.	.	.	.	.
.	.	.	16g/	.	16gg\	.	.	.	.	.
8G\J	.	.	16g/	.	16gg\	.	.	.	.	.
.	.	.	16g/JJ	.	16gg\JJ	.	.	.	.	.
=89	=89	=89	=89	=89	=89	=89	=89	=89	=89	=89
8E\L	.	.	16ee\LL	.	16gg#X\LL	.	2r	.	2ryy	.
.	.	.	16gg#X\	.	16bb\	.	.	.	.	.
8G#X\	.	.	16gg#\	.	16bb\	.	.	.	.	.
.	.	.	16gg#\JJ	.	16bb\JJ	.	.	.	.	.
8G#\	.	.	16gg#\LL	.	16bb\LL	.	.	.	.	.
.	.	.	16bb\	.	16ddd\	.	.	.	.	.
8G#\J	.	.	16bb\	.	16ddd\	.	.	.	.	.
.	.	.	16bb\JJ	.	16ddd\JJ	.	.	.	.	.
=90	=90	=90	=90	=90	=90	=90	=90	=90	=90	=90
!LO:TX:t=P:problem=8G poprawione na 8A	!	!	!	!	!	!	!	!	!	!
!LO:TX:t=P:problem=mixed beam	!	!	!	!	!	!	!	!	!	!
8A\L	.	.	16aa\LL	.	16ccc#X\LL	.	2r	.	2ryy	.
.	.	.	16cc#\	.	16aa\	.	.	.	.	.
8E\	.	.	16cc#\	.	16aa\	.	.	.	.	.
.	.	.	16cc#\JJ	.	16aa\JJ	.	.	.	.	.
8AA/	.	.	16cc#\LL	.	16aa\LL	.	.	.	.	.
.	.	.	16cc#\	.	16aa\	.	.	.	.	.
8A\J	.	.	16cc#\	.	16aa\	.	.	.	.	.
.	.	.	16cc#\JJ	.	16aa\JJ	.	.	.	.	.
=91	=91	=91	=91	=91	=91	=91	=91	=91	=91	=91
*	*	*	*Xtremolo	*	*Xtremolo	*	*	*	*	*
!	!	!	!	!	!	!	!	!	!	!
8AA/L	.	.	16dd\LL	.	16ff#\LL	.	2r	.	2ryy	.
.	.	.	16ff#\	.	16aa\	.	.	.	.	.
8A\	.	.	16ff#\	.	16aa\	.	.	.	.	.
.	.	.	16ff#\JJ	.	16aa\JJ	.	.	.	.	.
8A\	3	.	16ff#\LL	.	16aa\LL	.	.	.	.	.
.	.	.	16ee\	.	16gg\	.	.	.	.	.
8A\J	.	.	16ee\	.	16gg\	.	.	.	.	.
.	.	.	16dd\JJ	.	16ff#\JJ	.	.	.	.	.
=92	=92	=92	=92	=92	=92	=92	=92	=92	=92	=92
8A\L	4	.	16cc#\LL	.	16ee\LL	.	2r	.	2ryy	.
.	.	.	16ee\	.	16gg\	.	.	.	.	.
8A\	.	.	16ee\	.	16gg\	.	.	.	.	.
.	.	.	16ee\JJ	.	16gg\JJ	.	.	.	.	.
8A\	.	.	16ee\LL	.	16gg\LL	.	.	.	.	.
.	.	.	16dd\	.	16ff#\	.	.	.	.	.
8A\J	.	.	16dd\	.	16ff#\	.	.	.	.	.
.	.	.	16cc#\JJ	.	16ee\JJ	.	.	.	.	.
!	!	!	!	!	!LO:LB:g=original	!	!	!	!	!
=93	=93	=93	=93	=93	=93	=93	=93	=93	=93	=93
8AA/L	3	.	16d/LL	.	16f#/LL	.	2r	.	2ryy	.
.	.	.	16f#/	.	16a/	.	.	.	.	.
8AA/	.	.	16f#/	.	16a/	.	.	.	.	.
.	.	.	16f#/JJ	.	16a/	.	.	.	.	.
8AA/	.	.	16f#/LL	.	16a/JJ	.	.	.	.	.
.	.	.	16e/	.	16g/LL	.	.	.	.	.
8AA/J	.	.	16e/	.	16g/	.	.	.	.	.
.	.	.	16d/JJ	.	16f#/JJ	.	.	.	.	.
!LO:LB:g=original	!	!	!	!	!	!	!	!	!	!
=94	=94	=94	=94	=94	=94	=94	=94	=94	=94	=94
8AA/L	4	.	16c#/LL	.	16e/LL	.	2r	.	2ryy	.
.	.	.	16e/	.	16g/	.	.	.	.	.
8AA/	.	.	16e/	.	16g/	.	.	.	.	.
.	.	.	16e/JJ	.	16g/JJ	.	.	.	.	.
8AA/	.	.	16e/LL	.	16g/LL	.	.	.	.	.
.	.	.	16d/	.	16f#/	.	.	.	.	.
8AA/J	.	.	16d/	.	16f#/	.	.	.	.	.
.	.	.	16c#/JJ	.	16e/JJ	.	.	.	.	.
!	!	!	!LO:LB:g=original	!	!	!	!	!	!	!
=95	=95	=95	=95	=95	=95	=95	=95	=95	=95	=95
!	!	!	!	!	!	!LO:DY:b:t=for.	!	!	!	!
8F#\L	.	.	8f#/L	.	8f#/L	f	2r	.	2ryy	.
16E\L	.	.	16e/L	.	16e/L	.	.	.	.	.
16D\JJ	.	.	16d/JJ	.	16d/JJ	.	.	.	.	.
!	!	!	!LO:TX:t=P:problem=mixed beam	!	!LO:TX:t=P:problem=mixed beam	!	!	!	!	!
8A\L	.	.	8a\L	.	8a\L	.	.	.	.	.
8AA/J	.	.	8A/J	.	8A/J	.	.	.	.	.
=96	=96	=96	=96	=96	=96	=96	=96	=96	=96	=96
8F#\L	.	.	8f#/L	.	8f#/L	.	2r	.	2ryy	.
16E\L	.	.	16e/L	.	16e/L	.	.	.	.	.
16D\JJ	.	.	16d/JJ	.	16d/JJ	.	.	.	.	.
!	!	!	!LO:TX:t=P:problem=mixed beam	!	!LO:TX:t=P:problem=mixed beam	!	!	!	!	!
8A\L	.	.	8a\L	.	8a\L	.	.	.	.	.
8AA/J	.	.	8A/J	.	8A/J	.	.	.	.	.
=97	=97	=97	=97	=97	=97	=97	=97	=97	=97	=97
8F#\L	.	.	8f#/L	.	8f#/L	.	2r	.	2ryy	.
16E\L	.	.	16e/L	.	16e/L	.	.	.	.	.
16D\JJ	.	.	16d/JJ	.	16d/JJ	.	.	.	.	.
!	!	!	!LO:TX:t=P:problem=mixed beam	!	!LO:TX:t=P:problem=mixed beam	!	!	!	!	!
8A\L	.	.	8a\L	.	8a\L	.	.	.	.	.
8AA/J	.	.	8A/J	.	8A/J	.	.	.	.	.
=98	=98	=98	=98	=98	=98	=98	=98	=98	=98	=98
!	!	!LO:DY:b:t=pp.	!	!	!	!	!	!	!	!
8D\	.	pp	8d/L	.	8d/L	.	4dd\	O	4dd\	O
!	!	!	!	!	!	!LO:DY:b:t=pp.	!	!	!	!
!	!	!	!	!LO:DY:b:t=p.	!	!	!	!	!	!
8r	.	.	8f#/	p	8a/	pp	.	.	.	.
*Xtremolo	*	*	*	*	*	*	*	*	*	*
8D\L	.	.	8f#/	.	8a/	.	16dd\LL	glo-	16dd\LL	glo-
.	.	.	.	.	.	.	16cc#\	.	16ee\JJ	.
8D\J	.	.	8f#/J	.	8a/J	.	16dd\	-ri-	16ff#\LL	-ri-
.	.	.	.	.	.	.	16ee\JJ	.	16gg\JJ	.
=99	=99	=99	=99	=99	=99	=99	=99	=99	=99	=99
*tremolo	*	*	*tremolo	*	*tremolo	*	*	*	*	*
8D\L	.	.	8f#/L	.	8a/L	.	8ff#\	-o-	8aa\	-o-
8D\	.	.	8f#/	.	8a/	.	8dd\	-sa	8ff#\	-sa
8D\	.	.	8f#/	.	8a/	.	4r	.	4r	.
8D\J	.	.	8f#/J	.	8a/J	.	.	.	.	.
=100	=100	=100	=100	=100	=100	=100	=100	=100	=100	=100
8C#\L	.	.	8e/L	.	8g/L	.	4ee\	Vir-	4gg\	Vir-
8C#\	.	.	8e/	.	8g/	.	.	.	.	.
8C#\	.	.	8e/	.	8g/	.	16ee\LL	.	16gg\LL	.
.	.	.	.	.	.	.	16dd\	.	16ff#\	.
8C#\J	.	.	8e/J	.	8g/J	.	16ee\	.	16gg\	.
.	.	.	.	.	.	.	16cc#\JJ	.	16ee\JJ	.
=101	=101	=101	=101	=101	=101	=101	=101	=101	=101	=101
!LO:TX:t=P:problem=mixed beam	!	!	!	!	!	!	!	!	!	!
8D\L	.	.	8d/L	.	8f#/L	.	16dd\	-gi-	16ff#\LL	-gi-
.	.	.	.	.	.	.	16cc#\	-num	16ee\JJ	.
8DD/	.	.	8d/	.	8f#/	.	8dd\	.	8dd\	-num
8DD/	.	.	8d/	.	8f#/	.	4r	.	4r	.
8DD/J	.	.	8d/J	.	8f#/J	.	.	.	.	.
!	!	!	!	!	!LO:LB:g=original	!	!LO:LB:g=original	!	!	!
=102	=102	=102	=102	=102	=102	=102	=102	=102	=102	=102
8D\L	.	.	8f#/L	.	8a/L	.	4dd\	O	4dd\	O
8D\	.	.	8f#/	.	8a/	.	.	.	.	.
8D\	.	.	8f#/	.	8a/	.	16dd\LL	glo-	16dd\LL	glo-
.	.	.	.	.	.	.	16cc#\	.	16ee\JJ	.
8D\J	.	.	8f#/J	.	8a/J	.	16dd\	-ri-	16ff#\LL	-ri-
.	.	.	.	.	.	.	16ee\JJ	.	16gg\JJ	.
=103	=103	=103	=103	=103	=103	=103	=103	=103	=103	=103
8D\L	.	.	8f#/L	.	8a/L	.	8ff#\	-o-	8aa\	-o-
8D\	.	.	8f#/	.	8a/	.	8dd\	-sa	8ff#\	-sa
8D\	.	.	8f#/	.	8a/	.	4r	.	4r	.
8D\J	.	.	8f#/J	.	8a/J	.	.	.	.	.
!	!	!	!	!	!	!	!	!	!LO:LB:g=original	!
=104	=104	=104	=104	=104	=104	=104	=104	=104	=104	=104
8C#/L	.	.	8e/L	.	8g/L	.	4ee\	Vir-	4gg\	Vir-
8C#/	.	.	8e/	.	8g/	.	.	.	.	.
8C#/	.	.	8e/	.	8g/	.	16ee\LL	.	16gg\LL	.
.	.	.	.	.	.	.	16dd\	.	16ff#\	.
8C#/J	.	.	8e/J	.	8g/J	.	16ee\	.	16gg\	.
.	.	.	.	.	.	.	16cc#\JJ	.	16ee\JJ	.
=105	=105	=105	=105	=105	=105	=105	=105	=105	=105	=105
!LO:TX:t=P:problem=mixed beam	!	!	!	!	!	!	!	!	!	!
8D\L	.	.	8d/L	.	8f#/L	.	16dd\	-gi-	16ff#\	-gi-
.	.	.	.	.	.	.	16cc#\	-num	16ee\	-num
8DD/	.	.	8d/	.	8f#/	.	8dd\	.	8dd\	.
8DD/	.	.	8d/	.	8f#/	.	4r	.	4r	.
8DD/J	.	.	8d/J	.	8f#/J	.	.	.	.	.
!LO:LB:g=original	!	!	!	!	!	!	!	!	!	!
=106	=106	=106	=106	=106	=106	=106	=106	=106	=106	=106
8AA/L	.	.	8a/L	.	8a/L	.	4a\	Sub-	4cc#\	sub-
8AA/	.	.	8a/	.	8a/	.	.	.	.	.
8AA/	.	.	8a/	.	8a/	.	16a\LL	-li-	16cc#\LL	-li-
.	.	.	.	.	.	.	16g#X\JJ	.	16b\	.
8AA/J	.	.	8a/J	.	8a/J	.	16a\LL	-mis	16cc#\	-mis
.	.	.	.	.	.	.	16b\JJ	.	16dd\JJ	.
=107	=107	=107	=107	=107	=107	=107	=107	=107	=107	=107
8AA/L	.	.	8a/L	.	8a/L	.	4cc#\	in-	4ee\	in-
8AA/	.	.	8a/	.	8a/	.	.	.	.	.
!	!	!	!	!	!	!	!LO:LB:g=original	!	!	!
8AA/	.	.	8a/	.	8a/	.	16cc#\LL	-ter	16ee\LL	-ter
.	.	.	.	.	.	.	16b\	.	16dd\	.
8AA/J	.	.	8a/J	.	8a/J	.	16cc#\	.	16ee\	.
.	.	.	.	.	.	.	16dd\JJ	.	16ff#\JJ	.
=108	=108	=108	=108	=108	=108	=108	=108	=108	=108	=108
8AA/L	.	.	8a/L	.	8a/L	.	16ee\	si-	16gg\	si-
.	.	.	.	.	.	.	16dd\	-de-	16ff#\	-de-
8AA/	.	.	8a/	.	8a/	.	8ee\	-ra	8gg\	-ra
8AA/	.	.	8a/	.	8a/	.	4r	.	4r	.
8AA/J	.	.	8a/J	.	8a/J	.	.	.	.	.
!	!	!	!LO:LB:g=original	!	!	!	!	!	!	!
=109	=109	=109	=109	=109	=109	=109	=109	=109	=109	=109
8AA/L	.	.	8a/L	.	8a/L	.	4a\	Sub-	4cc#\	sub-
8AA/	.	.	8a/	.	8a/	.	.	.	.	.
8AA/	.	.	8a/	.	8a/	.	16a\LL	-li-	16cc#\LL	-li-
.	.	.	.	.	.	.	16g#X\	.	16b\	.
8AA/J	.	.	8a/J	.	8a/J	.	16a\	-mis	16cc#\	-mis
.	.	.	.	.	.	.	16b\JJ	.	16dd\JJ	.
!	!	!	!	!	!	!	!	!	!LO:LB:g=original	!
=110	=110	=110	=110	=110	=110	=110	=110	=110	=110	=110
8AA/L	.	.	8a/L	.	8a/L	.	4cc#\	in-	4ee\	in-
8AA/	.	.	8a/	.	8a/	.	.	.	.	.
8AA/	.	.	8a/	.	8a/	.	16cc#\LL	-ter	16ee\LL	-ter
.	.	.	.	.	.	.	16b\	.	16dd\	.
8AA/J	.	.	8a/J	.	8a/J	.	16cc#\	.	16ee\	.
.	.	.	.	.	.	.	16dd\JJ	.	16ff#\JJ	.
=111	=111	=111	=111	=111	=111	=111	=111	=111	=111	=111
8AA/L	.	.	8a/L	.	8a/L	.	16ee\	Si-	16gg\	si-
.	.	.	.	.	.	.	16dd\	-de-	16ff#\	-de-
8AA/	.	.	8a/	.	8a/	.	8ee\	-ra	8gg\	-ra
8AA/	.	.	8a/	.	8a/	.	4r	.	4r	.
8AA/J	.	.	8a/J	.	8a/J	.	.	.	.	.
=112	=112	=112	=112	=112	=112	=112	=112	=112	=112	=112
*	*	*	*Xtremolo	*	*Xtremolo	*	*	*	*	*
8AA/L	.	.	8d/L	.	8f#/L	.	8dd\	in-	8ff#\	in-
8AA/	.	.	8d/	.	8f#/	.	8a\	-ter	16ee\LL	-ter
.	.	.	.	.	.	.	.	.	16dd\JJ	.
8AA/	.	.	8c#/	.	8e/	.	8.a\	si-	8.ee\	si-
!LO:TX:t=P:problem=wykreślony takt	!	!	!	!	!	!	!	!	!	!
8AA/J	.	.	8c#/J	.	8e/J	.	.	.	.	.
.	.	.	.	.	.	.	16a\	-de-	16ff#\	-de-
!	!	!	!	!	!	!	!LO:LB:g=original	!	!	!
=113	=113	=113	=113	=113	=113	=113	=113	=113	=113	=113
*	*	*	*tremolo	*	*tremolo	*	*	*	*	*
8DD/L	.	.	8d/L	.	8f#/L	.	4f#/	-ra	4dd\	-ra
8DD/	.	.	8d/	.	8f#/	.	.	.	.	.
8DD/	.	.	8d/	.	8f#/	.	4r	.	4r	.
8DD/J	.	.	8d/J	.	8f#/J	.	.	.	.	.
=114	=114	=114	=114	=114	=114	=114	=114||:	=114	=114	=114
8AA/L	.	.	8a/L	.	8a/L	.	4a\	Sub-	4cc#\	sub-
8AA/	.	.	8a/	.	8a/	.	.	.	.	.
8AA/	.	.	8a/	.	8a/	.	16a\LL	-li-	16cc#\LL	-li-
.	.	.	.	.	.	.	16g#X\	.	16b\	.
8AA/J	.	.	8a/J	.	8a/J	.	16a\	-mis	16cc#\	-mis
.	.	.	.	.	.	.	16b\JJ	.	16dd\JJ	.
=115	=115	=115	=115	=115	=115	=115	=115	=115	=115	=115
8AA/L	.	.	8a/L	.	8a/L	.	4cc#\	in-	4ee\	in-
8AA/	.	.	8a/	.	8a/	.	.	.	.	.
8AA/	.	.	8a/	.	8a/	.	16cc#\LL	-ter	16ee\LL	-ter
.	.	.	.	.	.	.	16b\	.	16dd\	.
8AA/J	.	.	8a/J	.	8a/J	.	16cc#\	.	16ee\	.
!	!	!	!	!	!	!	!	!	!LO:TX:b:t=V. C.	!
.	.	.	.	.	.	.	16dd\JJ	.	16ff#\JJ	.
!	!	!	!	!	!	!	!	!	!LO:LB:g=original	!
=116	=116	=116	=116	=116	=116	=116	=116	=116	=116	=116
8AA/L	.	.	8a/L	.	8a/L	.	16ee\	si-	16gg\	si-
.	.	.	.	.	.	.	16dd\	-de-	16ff#\	-de-
8AA/	.	.	8a/	.	8a/	.	8ee\	-ra	8gg\	-ra
8AA/	.	.	8a/	.	8a/	.	4r	.	4r	.
8AA/J	.	.	8a/J	.	8a/J	.	.	.	.	.
=117	=117	=117	=117	=117	=117	=117	=117:||	=117	=117	=117
!	!	!	!	!	!	!	!LO:TX:t=P:problem=t. 117-119 zapisane repetycją	!	!	!
8AA/L	.	.	8a/L	.	8a/L	.	4a\yy	Sub-	4cc#\	sub-
8AA/	.	.	8a/	.	8a/	.	.	.	.	.
8AA/	.	.	8a/	.	8a/	.	16a\LLyy	-li-	16cc#\LL	-li-
.	.	.	.	.	.	.	16g#X\yy	.	16b\	.
8AA/J	.	.	8a/J	.	8a/J	.	16a\yy	-mis	16cc#\	-mis
.	.	.	.	.	.	.	16b\JJyy	.	16dd\JJ	.
=118	=118	=118	=118	=118	=118	=118	=118	=118	=118	=118
8AA/L	.	.	8a/L	.	8a/L	.	4cc#\yy	in-	4ee\	in-
8AA/	.	.	8a/	.	8a/	.	.	.	.	.
8AA/	.	.	8a/	.	8a/	.	16cc#\LLyy	-ter	16ee\LL	-ter
.	.	.	.	.	.	.	16b\yy	.	16dd\	.
8AA/J	.	.	8a/J	.	8a/J	.	16cc#\yy	.	16ee\	.
.	.	.	.	.	.	.	16dd\JJyy	.	16ff#\JJ	.
=119	=119	=119	=119	=119	=119	=119	=119	=119	=119	=119
8AA/L	.	.	8a/L	.	8a/L	.	16ee\yy	si-	16gg\	si-
.	.	.	.	.	.	.	16dd\yy	-de-	16ff#\	-de-
8AA/	.	.	8a/	.	8a/	.	8ee\yy	-ra	8gg\	-ra
8AA/	.	.	8a/	.	8a/	.	4ryy	.	4r	.
8AA/J	.	.	8a/J	.	8a/J	.	.	.	.	.
!	!	!	!	!	!LO:LB:g=original	!	!	!	!	!
=120	=120	=120	=120	=120	=120	=120	=120	=120	=120	=120
*	*	*	*Xtremolo	*	*Xtremolo	*	*	*	*	*
8AA/L	.	.	8d/L	.	8f#/L	.	8dd\	in-	8ff#\	in-
8AA/	.	.	8d/	.	8f#/	.	8a\	-ter	16ee\LL	-ter
.	.	.	.	.	.	.	.	.	16dd\JJ	.
!	!	!	!	!	!	!	!	!	!LO:LB:g=original	!
8AA/	.	.	8c#/	.	8e/	.	8.a\	si-	8.ee\	si-
8AA/J	.	.	8c#/J	.	8e/J	.	.	.	.	.
.	.	.	.	.	.	.	16a\	-de-	16ff#\	-de-
*	*	*	*tremolo	*	*tremolo	*	*	*	*	*
=121	=121	=121	=121	=121	=121	=121	=121	=121	=121	=121
8DD/L	.	.	8d/L	.	8f#/L	.	4f#/	-ra	4dd\	-ra
8DD/	.	.	8d/	.	8f#/	.	.	.	.	.
!	!	!	!	!	!	!	!LO:TX:b:t=V. C.	!	!	!
8DD/	.	.	8d/	.	8f#/	.	4r	.	4r	.
8DD/J	.	.	8d/J	.	8f#/J	.	.	.	.	.
!	!	!	!	!	!	!	!LO:LB:g=original	!	!	!
=122	=122	=122	=122	=122	=122	=122	=122	=122	=122	=122
*	*	*	*Xtremolo	*	*Xtremolo	*	*	*	*	*
8D\L	3	.	8g/L	.	8b/L	.	16f#/LL	qvi	16a\LL	qvi
.	.	.	.	.	.	.	16g/JJ	.	16b\JJ	.
8D\	.	.	8g/	.	8b/	.	4a/	te	4ccn\	te
8D\	.	.	8f#/	.	8a/	.	.	.	.	.
8D\J	.	.	8f#/J	.	8a/J	.	16g/LL	crae-	16b\LL	crae-
.	.	.	.	.	.	.	16f#/JJ	.	16a\JJ	.
!	!	!	!LO:LB:g=original	!	!	!	!	!	!	!
=123	=123	=123	=123	=123	=123	=123	=123	=123	=123	=123
8D\L	4	.	8g/L	.	8b/L	.	16g\LL	-a-	16b\LL	-a-
.	.	.	.	.	.	.	16a\JJ	.	16ccn\JJ	.
8D\	.	.	8g/	.	8b/	.	4b\	.	4dd\	-vit
8D\	.	.	8f#/	.	8a/	.	.	.	.	.
8D\J	.	.	8f#/J	.	8a/J	.	8a\	-vit	8cc\	par-
=124	=124	=124	=124	=124	=124	=124	=124	=124	=124	=124
*	*	*	*tremolo	*	*tremolo	*	*	*	*	*
8D\L	3	.	8g/L	.	8b\L	.	16g/LL	par-	16b\LL	-vu-
.	.	.	.	.	.	.	16f#/JJ	-vu-	16a\JJ	.
8D\	.	.	8g/	.	8b\	.	8g/	-lum	8g\	-lum
8D\	.	.	8g/	.	8b\	.	8r	.	8r	.
!	!	!	!	!	!	!	!LO:TX:t=P:problem=16g poprawione na 16f#	!	!	!
8D\J	.	.	8g/J	.	8b\J	.	16f#\LL	par-	16a\LL	par-
!	!	!	!	!	!	!	!LO:TX:t=P:problem=16b poprawione na 16a	!	!	!
.	.	.	.	.	.	.	16a\JJ	.	16ccn\JJ	.
!	!	!	!	!	!	!	!	!	!LO:LB:g=original	!
=125	=125	=125	=125	=125	=125	=125	=125	=125	=125	=125
!	!	!	!LO:SIC:v:s=8g	!	!	!	!	!	!	!
8GG/L	.	.	8g#X/L	.	8b\L	.	16g\	-vu-	16b\	-vu-
.	.	.	.	.	.	.	16f#\	-lum	16a\	-lum
!	!	!	!LO:SIC:v:s=8g	!	!	!	!	!	!	!
8GG/	.	.	8g#/	.	8b\	.	8g\	.	8g\	.
!	!	!	!LO:SIC:v:s=8g	!	!	!	!	!	!	!
8GG/	.	.	8g#/	.	8b\	.	4r	.	4r	.
!	!	!	!LO:SIC:v:s=8g	!	!	!	!	!	!	!
8GG/J	.	.	8g#/J	.	8b\J	.	.	.	.	.
!LO:LB:g=original	!	!	!	!	!	!	!	!	!	!
=126	=126	=126	=126	=126	=126	=126	=126	=126	=126	=126
*	*	*	*Xtremolo	*	*Xtremolo	*	*	*	*	*
8E\L	3	.	8a/L	.	8cc#\L	.	16g#X\LL	qvi	16b\LL	qvi
!	!	!	!	!	!	!	!	!	!LO:TX:t=P:znaki:problem= ccn poprawiony na cc#	!
.	.	.	.	.	.	.	16a\JJ	.	16cc#X\JJ	.
8E\	.	.	8a/	.	8cc#\	.	4b\	te	4dd\	te
8E\	.	.	8g#X/	.	8b\	.	.	.	.	.
!	!	!	!	!	!	!	!LO:LB:g=original	!	!	!
8E\J	.	.	8g#/J	.	8b\J	.	16a\LL	crae-	16cc#\LL	crae-
.	.	.	.	.	.	.	16g#\JJ	.	16b\JJ	.
=127	=127	=127	=127	=127	=127	=127	=127	=127	=127	=127
8E\L	4	.	8a/L	.	8cc#\L	.	16a\LL	-a-	16cc#\LL	-a-
.	.	.	.	.	.	.	16b\JJ	.	16dd\JJ	.
8E\	.	.	8a/	.	8cc#\	.	4cc#\	.	4ee\	.
!	!	!	!LO:SIC:v:s=8g#	!	!	!	!	!	!	!
8E\	.	.	8g/	.	8b\	.	.	.	.	.
!	!	!	!LO:SIC:v:s=8g#	!	!	!	!	!	!	!
8E\J	.	.	8g/J	.	8b\J	.	8b\	-vit	8dd\	-vit
=128	=128	=128	=128	=128	=128	=128	=128	=128	=128	=128
*	*	*	*tremolo	*	*tremolo	*	*	*	*	*
8E\L	3	.	8a/L	.	8cc#\L	.	16a\	par-	16cc#\LL	par-
.	.	.	.	.	.	.	16g#X\	-vu-	16b\JJ	-vu-
8E\	.	.	8a/	.	8cc#\	.	8a\	-lum	8a\	-lum
!	!	!	!	!	!	!	!LO:TX:t=P:problem=4r poprawiona na 8r	!	!	!
8E\	.	.	8a/	.	8cc#\	.	8r	.	8r	.
8E\J	.	.	8a/J	.	8cc#\J	.	16g#X\LL	par-	16b\LL	par-
.	.	.	.	.	.	.	16b\JJ	.	16dd\JJ	.
=129	=129	=129	=129	=129	=129	=129	=129	=129	=129	=129
8AA/L	.	.	8a/L	.	8cc#\L	.	16a\	-vu-	16cc#\LL	-vu-
.	.	.	.	.	.	.	16g#X\	.	16b\JJ	.
8AA/	.	.	8a/	.	8cc#\	.	8a\	-lum	8a\	-lum
8AA/	.	.	8a/	.	8cc#\	.	4r	.	4r	.
8AA/J	.	.	8a/J	.	8cc#\J	.	.	.	.	.
!	!	!	!	!	!	!	!	!	!LO:LB:g=original	!
=130	=130	=130	=130	=130	=130||:	=130	=130||:	=130	=130	=130
8AA/L	.	.	8e/L	.	8g/L	.	16cc#\LL	Lac-	16ee\LL	Lac-
.	.	.	.	.	.	.	16dd\JJ	.	16ff#\JJ	.
!	!	!	!	!	!	!	!LO:SIC:v:l:s=-ten-	!	!LO:SIC:v:l:s=-ten-	!
8C#/	.	.	8e/	.	8g/	.	4ee\	-tan-	4gg\	-tan-
8C#/	.	.	8e/	.	8g/	.	.	.	.	.
8C#/J	.	.	8e/J	.	8g/J	.	8cc#\	-te	8ee\	-te
!	!	!	!	!	!	!	!LO:LB:g=original	!	!	!
=131	=131	=131	=131	=131	=131	=131	=131	=131	=131	=131
8D\L	.	.	8f#/L	.	8a/L	.	16dd\	nu-	16ff#\LL	nu-
.	.	.	.	.	.	.	16ee\	.	16gg\JJ	.
8D\	.	.	8f#/	.	8a/	.	8ff#\	-tris	8aa\	-tris
8D\	.	.	8f#/	.	8a/	.	4r	.	4r	.
8D\J	.	.	8f#/J	.	8a/J	.	.	.	.	.
=132	=132	=132	=132	=132	=132	=132	=132	=132	=132	=132
8AA/L	.	.	8e/L	.	8g/L	.	16cc#\LL	lac-	16ee\LL	lac-
.	.	.	.	.	.	.	16dd\JJ	.	16ff#\JJ	.
!	!	!	!	!	!	!	!LO:SIC:v:l:s=-ten-	!	!LO:SIC:v:l:s=-ten-	!
8C#/	.	.	8e/	.	8g/	.	4ee\	-tan-	4gg\	-tan-
8C#/	.	.	8e/	.	8g/	.	.	.	.	.
8C#/J	.	.	8e/J	.	8g/J	.	8cc#\	-te	8ee\	-te
=133	=133	=133	=133	=133	=133	=133	=133	=133	=133	=133
8D\L	.	.	8f#/L	.	8a/L	.	16dd\LL	nu-	16ff#\LL	nu-
.	.	.	.	.	.	.	16ee\JJ	.	16gg\JJ	.
8D\	.	.	8f#/	.	8a/	.	8ff#\	-tris	8aa\	-tris
8D\	.	.	8f#/	.	8a/	.	4r	.	4r	.
8D\J	.	.	8f#/J	.	8a/J	.	.	.	.	.
=134	=134	=134	=134	=134	=134	=134	=134	=134	=134	=134
*	*	*	*Xtremolo	*	*	*	*	*	*	*
8D\L	.	.	8d/L	.	8f#/L	.	8dd\L	nu-	8ff#\	nu-
8DD/	.	.	8d/	.	8g/	.	8a\J	-tris	16ee\LL	-tris
.	.	.	.	.	.	.	.	.	16dd\JJ	.
8AA/	.	.	8c#/	.	8a/	.	8.a\	u-	8.ee\	u-
8AA/J	.	.	8c#/J	.	8A/J	.	.	.	.	.
.	.	.	.	.	.	.	16a\	-be-	16ff#\	-be-
=135	=135	=135	=135	=135	=135	=135	=135	=135	=135	=135
*	*	*	*tremolo	*	*	*	*	*	*	*
8DD/L	.	.	8d/L	.	8d/L	.	4f#/	-re	4dd\	-re
8DD/	.	.	8d/	.	8f#/	.	.	.	.	.
8DD/	.	.	8d/	.	8f#/	.	4r	.	4r	.
8DD/J	.	.	8d/J	.	8f#/J	.	.	.	.	.
=136	=136	=136	=136	=136	=136:||	=136	=136:||	=136	=136	=136
!	!	!	!	!	!LO:TX:t=P:problem=t. 136-141 zapisane repetycją	!	!LO:TX:t=P:problem=t. 136-141 zapisane repetycją	!	!	!
*	*	*	*	*	*Xtremolo	*	*	*	*	*
8AA/L	.	.	8e/L	.	8g/Lyy	.	16cc#\LLyy	Lac-	16ee\LL	lac-
.	.	.	.	.	.	.	16dd\JJyy	.	16ff#\JJ	.
!	!	!	!	!	!	!	!yLO:SIC:v:l:s=-ten-	!	!LO:SIC:v:l:s=-ten-	!
8C#/	.	.	8e/	.	8g/yy	.	4ee\yy	-tan-	4gg\	-tan-
8C#/	.	.	8e/	.	8g/yy	.	.	.	.	.
8C#/J	.	.	8e/J	.	8g/Jyy	.	8cc#\yy	-te	8ee\	-te
!	!	!	!LO:LB:g=original	!	!	!	!	!	!	!
=137	=137	=137	=137	=137	=137	=137	=137	=137	=137	=137
8D\L	.	.	8f#/L	.	8a/Lyy	.	16dd\yy	nu-	16ff#\LL	nu-
.	.	.	.	.	.	.	16ee\yy	.	16gg\JJ	.
8D\	.	.	8f#/	.	8a/yy	.	8ff#\yy	-tris	8aa\	-tris
8D\	.	.	8f#/	.	8a/yy	.	4ryy	.	4r	.
8D\J	.	.	8f#/J	.	8a/Jyy	.	.	.	.	.
=138	=138	=138	=138	=138	=138	=138	=138	=138	=138	=138
8AA/L	.	.	8e/L	.	8g/Lyy	.	16cc#\LLyy	lac-	16ee\LL	lac-
.	.	.	.	.	.	.	16dd\JJyy	.	16ff#\JJ	.
!	!	!	!	!	!	!	!yLO:SIC:v:l:s=-ten-	!	!LO:SIC:v:l:s=-ten-	!
8C#/	.	.	8e/	.	8g/yy	.	4ee\yy	-tan-	4gg\	-tan-
8C#/	.	.	8e/	.	8g/yy	.	.	.	.	.
8C#/J	.	.	8e/J	.	8g/Jyy	.	8cc#\yy	-te	8ee\	-te
=139	=139	=139	=139	=139	=139	=139	=139	=139	=139	=139
8D\L	.	.	8f#/L	.	8a/Lyy	.	16dd\LLyy	nu-	16ff#\LL	nu-
.	.	.	.	.	.	.	16ee\JJyy	.	16gg\JJ	.
8D\	.	.	8f#/	.	8a/yy	.	8ff#\yy	-tris	8aa\	-tris
8D\	.	.	8f#/	.	8a/yy	.	4ryy	.	4r	.
8D\J	.	.	8f#/J	.	8a/Jyy	.	.	.	.	.
!LO:LB:g=original	!	!	!	!	!	!	!	!	!	!
=140	=140	=140	=140	=140	=140	=140	=140	=140	=140	=1
*	*	*	*Xtremolo	*	*	*	*	*	*	*
8D\L	.	.	8d/L	.	8f#/Lyy	.	8dd\Lyy	nu-	8ff#\	nu-
8DD/	.	.	8d/	.	8g/yy	.	8a\Jyy	-tris	16ee\LL	-tris
.	.	.	.	.	.	.	.	.	16dd\JJ	.
8AA/	.	.	8c#/	.	8a/yy	.	8.a\yy	u-	8.ee\	u-
8AA/J	.	.	8c#/J	.	8A/Jyy	.	.	.	.	.
.	.	.	.	.	.	.	16a\yy	-be-	16ff#\	-be-
!	!	!	!	!	!	!	!	!	!LO:LB:g=original	!
=141	=141	=141	=141	=141	=141	=141	=141	=141	=141	=141
16D\LL	.	.	8d/L	.	8d/Lyy	.	4f#/yy	-re	4dd\	-re.
16d\	.	.	.	.	.	.	.	.	.	.
16c#\	.	.	8f#/	.	8f#/yy	.	.	.	.	.
16B\JJ	.	.	.	.	.	.	.	.	.	.
16A\LL	.	.	8f#/	.	8f#/yy	.	4ryy	.	4r	.
16G\	.	.	.	.	.	.	.	.	.	.
!	!	!	!LO:TX:b:t=Da Capo ad Finis	!	!LO:TX:b:t=Da Capo ad Finis\n141.	!	!	!	!	!
16F#\	.	.	8f#/J	.	8f#/Jyy	.	.	.	.	.
!LO:TX:b:t=Da Capo ad Finis 141.	!	!	!	!	!	!	!	!	!	!
16E\JJ	.	.	.	.	.	.	.	.	.	.
=142	=142	=142	=142	=142	=142	=142	=142	=142	=142	=142
*Xtremolo	*	*	*	*	*	*	*	*	*	*
!	!	!	!	!	!	!	!LO:TX:a:t=Tutti	!	!	!
8D\Lyy	.	.	8ff#\Lyy	.	16dd\LLyy	.	8f#\	qvi	4dd\	qvi
.	.	.	.	.	16dd\yy	.	.	.	.	.
8D\yy	.	.	8ff#\yy	.	16dd\yy	.	8a\	.	.	.
.	.	.	.	.	16dd\yy	.	.	.	.	.
!	!	!	!	!	!	!	!	!	!LO:TX:a:t=Tutti	!
8D\yy	.	.	8ff#\yy	.	16dd\yy	.	8a\	te	8dd\	te
.	.	.	.	.	16dd\yy	.	.	.	.	.
8D\Jyy	.	.	8ff#\Jyy	.	16dd\yy	.	8a\	crae-	8dd\	crae-
.	.	.	.	.	16dd\JJyy	.	.	.	.	.
!	!	!	!	!	!	!	!LO:LB:g=original	!	!	!
=143	=143	=143	=143	=143	=143	=143	=143	=143	=143	=143
8C#/Lyy	.	.	8ee\Lyy	.	16aa\LLyy	.	8a\	-a-	8ee\	-a-
.	.	.	.	.	16aa\yy	.	.	.	.	.
8C#/yy	.	.	8ee\yy	.	16aa\yy	.	8a\	-vit	8ee\	-vit
.	.	.	.	.	16aa\yy	.	.	.	.	.
8C#/yy	.	.	8ee\yy	.	16aa\yy	.	4r	.	4r	.
.	.	.	.	.	16aa\yy	.	.	.	.	.
8C#/Jyy	.	.	8ee\Jyy	.	16aa\yy	.	.	.	.	.
.	.	.	.	.	16aa\JJyy	.	.	.	.	.
=144	=144	=144	=144	=144	=144	=144	=144	=144	=144	=144
8BB/Lyy	.	.	8gg#X\Lyy	.	16ddd\LLyy	.	4b\	qvi	4dd\	qvi
.	.	.	.	.	16ddd\yy	.	.	.	.	.
8BB/yy	.	.	8gg#\yy	.	16ddd\yy	.	.	.	.	.
.	.	.	.	.	16ddd\yy	.	.	.	.	.
8BB/yy	.	.	8gg#\yy	.	16ddd\yy	.	8b\	te	8dd\	te
.	.	.	.	.	16ddd\yy	.	.	.	.	.
8BB/Jyy	.	.	8gg#\Jyy	.	16ddd\yy	.	8b\	crae-	8dd\	crae-
.	.	.	.	.	16ddd\JJyy	.	.	.	.	.
=145	=145	=145	=145	=145	=145	=145	=145	=145	=145	=145
!yLO:TX:t=P:problem=mixed beam	!	!	!	!	!	!	!	!	!	!
8AA\Lyy	.	.	4aa\yy	.	16ccc#\LLyy	.	8a\	-a-	8cc#\	-a-
.	.	.	.	.	16bb\Jyy	.	.	.	.	.
16A\Lyy	.	.	.	.	8aa\Jyy	.	8a\	-vit	8cc#\	-vit
16B\JJyy	.	.	.	.	.	.	.	.	.	.
16A\LLyy	.	.	4ryy	.	8ryy	.	4r	.	4r	.
16G\yy	.	.	.	.	.	.	.	.	.	.
16F#\yy	.	.	.	.	8a/yy	.	.	.	.	.
16E\JJyy	.	.	.	.	.	.	.	.	.	.
=146	=146	=146	=146	=146	=146	=146	=146	=146	=146	=146
8D\Lyy	.	.	8f#/Lyy	yp	16d/LLyy	.	4a\	qvi	4dd\	qvi
.	.	.	.	.	16d/yy	.	.	.	.	.
8D\yy	.	.	8f#/yy	.	16d/yy	.	.	.	.	.
.	.	.	.	.	16d/yy	.	.	.	.	.
8D\yy	.	.	8f#/yy	.	16d/yy	.	8a\	te	8dd\	te
.	.	.	.	.	16d/yy	.	.	.	.	.
8D\Jyy	.	.	8f#/Jyy	.	16d/yy	.	8a\	crae-	8dd\	crae-
.	.	.	.	.	16d/JJyy	.	.	.	.	.
!	!	!	!	!	!	!	!	!	!LO:LB:g=original	!
=147	=147	=147	=147	=147	=147	=147	=147	=147	=147	=147
8C#/Lyy	.	.	8e/Lyy	.	16a/LLyy	.	8a\	-a-	8ee\	-a-
.	.	.	.	.	16a/yy	.	.	.	.	.
8C#/yy	.	.	8e/yy	.	16a/yy	.	8a\	-vit	8ee\	-vit
.	.	.	.	.	16a/yy	.	.	.	.	.
8C#/yy	.	.	8e/yy	.	16a/yy	.	4r	.	4r	.
.	.	.	.	.	16a/yy	.	.	.	.	.
8C#/Jyy	.	.	8e/Jyy	.	16a/yy	.	.	.	.	.
.	.	.	.	.	16a/JJyy	.	.	.	.	.
=148	=148	=148	=148	=148	=148	=148	=148	=148	=148	=148
8BB/Lyy	.	.	8g#X/Lyy	.	16dd\LLyy	.	4b\	qvi	4dd\	qvi
.	.	.	.	.	16dd\yy	.	.	.	.	.
8BB/yy	.	.	8g#/yy	.	16dd\yy	.	.	.	.	.
.	.	.	.	.	16dd\yy	.	.	.	.	.
8BB/yy	.	.	8g#/yy	.	16dd\yy	.	8b\	te	8dd\	te
.	.	.	.	.	16dd\yy	.	.	.	.	.
8BB/Jyy	.	.	8g#/Jyy	.	16dd\yy	.	8b\	crae-	8dd\	crae-
.	.	.	.	.	16dd\JJyy	.	.	.	.	.
!	!	!	!	!	!	!	!LO:LB:g=original	!	!	!
=149	=149	=149	=149	=149	=149	=149	=149	=149	=149	=149
!yLO:TX:t=P:problem=mixed beam	!	!	!	!	!	!	!	!	!	!
8AA/Lyy	.	.	4a/yy	.	16cc#\LLyy	.	8a\	-a-	8cc#\	-a-
.	.	.	.	.	16b\Jyy	.	.	.	.	.
16A\Lyy	.	.	.	.	8a\Jyy	.	8a\	-vit	8cc#\	-vit
16B\JJyy	.	.	.	.	.	.	.	.	.	.
16A\LLyy	.	.	4ryy	.	16aa\LLyy	.	4r	.	4r	.
16G\yy	.	.	.	.	16aa\yy	.	.	.	.	.
16F#\yy	.	.	.	.	16aa\yy	.	.	.	.	.
16E\JJyy	.	.	.	.	16aa\JJyy	.	.	.	.	.
=150	=150	=150	=150	=150	=150	=150	=150	=150	=150	=150
8G\Lyy	.	.	16gg\LLyy	.	16bb\LLyy	.	8b\	qvi	8gg\	qvi
.	.	.	16gg\yy	.	16bb\yy	.	.	.	.	.
8G\yy	.	.	16gg\yy	.	16bb\yy	.	8b\	te	8gg\	te
.	.	.	16gg\yy	.	16bb\yy	.	.	.	.	.
8G\yy	.	.	16gg\yy	.	16bb\yy	.	4r	.	4r	.
.	.	.	16gg\yy	.	16bb\yy	.	.	.	.	.
8G\Jyy	.	.	16gg\yy	.	16bb\yy	.	.	.	.	.
.	.	.	16gg\JJyy	.	16bb\JJyy	.	.	.	.	.
=151	=151	=151	=151	=151	=151	=151	=151	=151	=151	=151
8F#\Lyy	.	.	16ff#\LLyy	.	16aa\LLyy	.	8a\	qvi	8ff#\	qvi
.	.	.	16ff#\yy	.	16aa\yy	.	.	.	.	.
8F#\yy	.	.	16ff#\yy	.	16aa\yy	.	8a\	te	8ff#\	te
.	.	.	16ff#\yy	.	16aa\yy	.	.	.	.	.
8F#\yy	.	.	16ff#\yy	.	16aa\yy	.	4r	.	4r	.
.	.	.	16ff#\yy	.	16aa\yy	.	.	.	.	.
8F#\Jyy	.	.	16ff#\yy	.	16aa\yy	.	.	.	.	.
.	.	.	16ff#\JJyy	.	16aa\JJyy	.	.	.	.	.
=152	=152	=152	=152	=152	=152	=152	=152	=152	=152	=152
8E\Lyy	.	.	16ee\LLyy	.	16gg\LLyy	.	4g/	qvi	4ee\	qvi
.	.	.	16ee\yy	.	16gg\yy	.	.	.	.	.
8E\yy	.	.	16ee\yy	.	16gg\yy	.	.	.	.	.
.	.	.	16ee\yy	.	16gg\yy	.	.	.	.	.
8E\yy	.	.	16ee\yy	.	16gg\yy	.	8g/	te	8ee\	te
.	.	.	16ee\yy	.	16gg\yy	.	.	.	.	.
8E\Jyy	.	.	16ee\yy	.	16gg\yy	.	8g/	crae-	8ee\	crae-
.	.	.	16ee\JJyy	.	16gg\JJyy	.	.	.	.	.
!	!	!	!	!	!	!	!	!	!LO:LB:g=original	!
=153	=153	=153	=153	=153	=153	=153	=153	=153	=153	=153
8D\Lyy	.	.	8dd\Lyy	.	16ff#\LLyy	.	8f#/	-a-	8dd\	-a-
.	.	.	.	.	16ee\JJyy	.	.	.	.	.
8D\yy	.	.	8dd\yy	.	4dd\yy	.	8f#/	-vit	8dd\	-vit
8D\yy	.	.	8dd\yy	.	.	.	4r	.	4r	.
8D\Jyy	.	.	8dd\Jyy	.	8a/yy	.	.	.	.	.
=154	=154	=154	=154	=154	=154	=154	=154	=154	=154	=154
8G\Lyy	.	.	16g/LLyy	.	16b/LLyy	yp	8b\	qvi	8gg\	qvi
.	.	.	16g/yy	.	16b/yy	.	.	.	.	.
8G\yy	.	.	16g/yy	.	16b/yy	.	8b\	te	8gg\	te
.	.	.	16g/yy	.	16b/yy	.	.	.	.	.
8G\yy	.	.	16g/yy	.	16b/yy	.	4r	.	4r	.
.	.	.	16g/yy	.	16b/yy	.	.	.	.	.
8G\Jyy	.	.	16g/yy	.	16b/yy	.	.	.	.	.
.	.	.	16g/JJyy	.	16b/JJyy	.	.	.	.	.
=155	=155	=155	=155	=155	=155	=155	=155	=155	=155	=155
8F#\Lyy	.	.	16f#/LLyy	.	16a/LLyy	.	8a\	qvi	8ff#\	qvi
.	.	.	16f#/yy	.	16a/yy	.	.	.	.	.
8F#\yy	.	.	16f#/yy	.	16a/yy	.	8a\	te	8ff#\	te
.	.	.	16f#/yy	.	16a/yy	.	.	.	.	.
8F#\yy	.	.	16f#/yy	.	16a/yy	.	4r	.	4r	.
.	.	.	16f#/yy	.	16a/yy	.	.	.	.	.
8F#\Jyy	.	.	16f#/yy	.	16a/yy	.	.	.	.	.
.	.	.	16f#/JJyy	.	16a/JJyy	.	.	.	.	.
=156	=156	=156	=156	=156	=156	=156	=156	=156	=156	=156
8E\Lyy	.	.	16e/LLyy	.	16g/LLyy	.	4g/	qvi	4ee\	qvi
.	.	.	16e/yy	.	16g/yy	.	.	.	.	.
8E\yy	.	.	16e/yy	.	16g/yy	.	.	.	.	.
.	.	.	16e/yy	.	16g/yy	.	.	.	.	.
8E\yy	.	.	16e/yy	.	16g/yy	.	8g/	te	8ee\	te
.	.	.	16e/yy	.	16g/yy	.	.	.	.	.
8E\Jyy	.	.	16e/yy	.	16g/yy	.	8g/	crae-	8ee\	crae-
.	.	.	16e/JJyy	.	16g/JJyy	.	.	.	.	.
=157	=157	=157	=157	=157	=157	=157	=157	=157	=157	=157
8D\Lyy	.	.	8d/Lyy	.	16f#/LLyy	.	8f#/	-a-	8dd\	-a-
.	.	.	.	.	16e/Jyy	.	.	.	.	.
!	!	!	!	!	!yLO:TX:t=P:problem=brak caudy	!	!	!	!	!
8D\yy	.	.	8d/yy	.	8d/Jyy	.	8f#/	-vit	8dd\	-vit
8D\yy	.	.	8d/yy	.	4d/yy	.	8r	.	8r	.
8D\Jyy	.	.	8d/Jyy	.	.	.	8a\	Par-	8ff#\	Par-
=158	=158	=158	=158	=158	=158	=158	=158	=158	=158	=158
8D\Lyy	.	.	16dd\LLyy	.	(16ff#\LLyy	.	8a\	-vu-	8ff#\	-vu-
.	.	.	16ff#\yy	.	16aa\)yy	.	.	.	.	.
8F#\yy	.	.	16ff#\yy	.	16aa`\yy	.	8a\	-lum	8ff#\	-lum
.	.	.	16ff#\JJyy	.	16aa`\JJyy	.	.	.	.	.
8F#\yy	.	.	16ff#\LLyy	yf	(16aa\LLyy	.	8r	.	8r	.
.	.	.	16aa\yy	.	16cccn\)yy	.	.	.	.	.
8F#\Jyy	.	.	16aa\yy	.	16ccc`\yy	.	8a\	par-	8ff#\	par-
.	.	.	16aa\JJyy	.	16ccc`\JJyy	.	.	.	.	.
!	!	!	!	!	!	!	!LO:LB:g=original	!	!LO:LB:g=original	!
=159	=159	=159	=159	=159	=159	=159	=159	=159	=159	=159
!yLO:TX:t=P:problem=mixed beam	!	!	!	!	!	!	!	!	!	!
8G\Lyy	.	.	16gg\LLyy	.	16bb\LLyy	.	8b\	-vu-	8gg\	-vu-
.	.	.	16b\yy	.	16gg\yy	.	.	.	.	.
8D\yy	.	.	16b\yy	.	16gg\yy	.	8b\	-lum	8gg\	-lum
.	.	.	16b\JJyy	.	16gg\JJyy	.	.	.	.	.
8GG/yy	.	.	16b/LLyy	.	16gg\LLyy	.	8r	.	8r	.
.	.	.	16b/yy	.	16gg\yy	.	.	.	.	.
8G\Jyy	.	.	16b/yy	.	16gg\yy	.	8b\	par-	8gg\	par-
.	.	.	16b/JJyy	.	16gg\JJyy	.	.	.	.	.
=160	=160	=160	=160	=160	=160	=160	=160	=160	=160	=160
!	!	!	!yLO:SIC:v:s=16ee	!	!yLO:SIC:v:s=16gg#	!	!	!	!	!
8E\Lyy	.	.	16cc#\LLyy	.	(16aa#X\LLyy	.	8b\	-vu-	8ee\	-vu-
.	.	.	16gg#X\yy	.	16bb\)yy	.	.	.	.	.
8G#X\yy	.	.	16gg#\yy	.	16bb`\yy	.	8b\	-lum	8ee\	-lum
.	.	.	16gg#\JJyy	.	16bb`\JJyy	.	.	.	.	.
8G#\yy	.	.	16gg#\LLyy	.	(16bb\LLyy	.	8r	.	8r	.
.	.	.	16bb\yy	.	16ddd\)yy	.	.	.	.	.
8G#\Jyy	.	.	16bb\yy	.	16ddd`\yy	.	8b\	par-	8ee\	par-
.	.	.	16bb\JJyy	.	16ddd`\JJyy	.	.	.	.	.
=161	=161	=161	=161	=161	=161	=161	=161	=161	=161	=161
!yLO:TX:t=P:problem=mixed beam	!	!	!	!	!	!	!	!	!	!
8A\Lyy	.	.	8aa\Lyy	.	16ccc#X\LLyy	.	8a\	-vu-	8cc#\	-vu-
.	.	.	.	.	16aa\yy	.	.	.	.	.
8E\yy	.	.	8cc#\yy	.	16aa\yy	.	8a\	-lum	8cc#\	-lum
.	.	.	.	.	16aa\JJyy	.	.	.	.	.
8AA/yy	.	.	8cc#\yy	.	8aa\Lyy	.	4r	.	4r	.
8A\Jyy	.	.	8cc#\Jyy	.	8aa\Jyy	.	.	.	.	.
=162	=162	=162	=162	=162	=162	=162	=162	=162	=162	=162
!yLO:TX:t=P:problem=mixed beam	!	!	!	!	!	!	!LO:TX:a:t=4	!	!LO:TX:a:t=4	!
8AA/Lyy	.	.	16dd\LLyy	.	(16ff#\LLyy	.	2r	.	2r	.
.	.	.	16gg\yy	.	16aa\)yy	.	.	.	.	.
8A\yy	.	.	16gg\yy	.	16aa`\yy	.	.	.	.	.
.	.	.	16gg\JJyy	.	16aa`\JJyy	.	.	.	.	.
8A\yy	.	.	16gg\LLyy	.	(16aa\LLyy	.	.	.	.	.
.	.	.	16ee\yy	.	16gg\)yy	.	.	.	.	.
8A\Jyy	.	.	16ee\yy	.	16gg`\yy	.	.	.	.	.
.	.	.	16dd\JJyy	.	16ff#`\JJyy	.	.	.	.	.
=163	=163	=163	=163	=163	=163	=163	=163	=163	=163	=163
8A\Lyy	.	.	16cc#\LLyy	.	16ee\LLyy	.	2r	.	2r	.
.	.	.	16ee\yy	.	16gg\yy	.	.	.	.	.
8A\yy	.	.	16ee\yy	.	16gg\yy	.	.	.	.	.
.	.	.	16ee\JJyy	.	16gg\JJyy	.	.	.	.	.
8A\yy	.	.	16ee\LLyy	.	(16gg\LLyy	.	.	.	.	.
.	.	.	16dd\yy	.	16ff#\yy	.	.	.	.	.
8A\Jyy	.	.	16dd\yy	.	16ff#\yy	.	.	.	.	.
.	.	.	16cc#\JJyy	.	16ee\JJ)yy	.	.	.	.	.
=164	=164	=164	=164	=164	=164	=164	=164	=164	=164	=164
8AA/Lyy	.	.	16d/LLyy	.	16f#/LLyy	.	2r	.	2r	.
.	.	.	16f#/yy	.	16a/yy	.	.	.	.	.
8AA/yy	.	.	16f#/yy	.	16a/yy	.	.	.	.	.
.	.	.	16f#/yy	.	16a/yy	.	.	.	.	.
8AA/yy	.	.	16f#/JJyy	.	16a/JJyy	.	.	.	.	.
.	.	.	16e/LLyy	.	(16g/LLyy	.	.	.	.	.
8AA/Jyy	.	.	16e/yy	.	16g/yy	.	.	.	.	.
.	.	.	16d/JJyy	.	16f#/JJ)yy	.	.	.	.	.
=165	=165	=165	=165	=165	=165	=165	=165	=165	=165	=165
8AA/Lyy	.	.	16c#/LLyy	.	16e/LLyy	.	2r	.	2r	.
.	.	.	16e/yy	.	16g/yy	.	.	.	.	.
8AA/yy	.	.	16e/yy	.	16g/yy	.	.	.	.	.
.	.	.	16e/JJyy	.	16g/JJyy	.	.	.	.	.
8AA/yy	.	.	16e/LLyy	.	16g/LLyy	.	.	.	.	.
.	.	.	16d/yy	.	16f#/yy	.	.	.	.	.
8AA/Jyy	.	.	16d/yy	.	16f#/yy	.	.	.	.	.
.	.	.	16c#/JJyy	.	16e/JJyy	.	.	.	.	.
=166	=166	=166	=166	=166	=166	=166	=166	=166	=166	=166
8F#\Lyy	.	.	8f#/Lyy	.	8f#/Lyy	.	8a\	Lac-	8dd\	Lac-
!	!	!	!	!	!	!	!LO:SIC:v:l:s=-ten-	!	!LO:SIC:v:l:s=-ten-	!
16E\Lyy	.	.	16e/Lyy	.	16e/Lyy	.	16a\	-tan-	16dd\	-tan-
!	!	!	!	!	!	!	!LO:SIC:v:l:s=-te	!	!LO:SIC:v:l:s=-te	!
16D\JJyy	.	.	16d/JJyy	.	16d/JJyy	.	16a\	-tem	16dd\	-tem
!	!	!	!	!	!	!	!	!	!LO:LB:g=original	!
!	!	!	!yLO:TX:t=P:problem=mixed beam	!	!yLO:TX:t=P:problem=mixed beam	!	!	!	!	!
8A\Lyy	.	.	8a\Lyy	.	8a/Lyy	.	8a\	nu-	8ee\	nu-
8AA/Jyy	.	.	8A/Jyy	.	8A/Jyy	.	8a\	-tris	8ee\	-tris
=167	=167	=167	=167	=167	=167	=167	=167	=167	=167	=167
8F#\Lyy	.	.	8f#/Lyy	.	8f#/Lyy	.	8a\	lac-	8dd\	lac-
!	!	!	!	!	!	!	!LO:SIC:v:l:s=-ten-	!	!LO:SIC:v:l:s=-ten-	!
16E\Lyy	.	.	16e/Lyy	.	16e/Lyy	.	16a\	-tan-	16dd\	-tan-
!	!	!	!	!	!	!	!LO:SIC:v:l:s=-te	!	!LO:SIC:v:l:s=-te	!
16D\JJyy	.	.	16d/JJyy	.	16d/JJyy	.	16a\	-tem	16dd\	-tem
!	!	!	!yLO:TX:t=P:problem=mixed beam	!	!yLO:TX:t=P:problem=mixed beam	!	!	!	!	!
8A\Lyy	.	.	8a\Lyy	.	8a/Lyy	.	8a\	nu-	8ee\	nu-
8AA/Jyy	.	.	8A/Jyy	.	8A/Jyy	.	8a\	-tris	8ee\	-tris
!	!	!	!	!	!	!	!LO:LB:g=original	!	!	!
=168	=168	=168	=168	=168	=168	=168	=168	=168	=168	=168
!	!	!	!yLO:TX:a:t=Finis	!	!	!	!	!	!	!
!	!	!	!	!	!	!	!LO:TX:t=P:problem=w źródle poprawiony tekst	!	!	!
8F#\Lyy	.	.	8f#/Lyy	.	8f#/Lyy	.	8a\	nu-	8dd\	nu-
!yLO:TX:a:t=Finis	!	!	!	!	!	!	!	!	!	!
16E\Lyy	.	.	16e/Lyy	.	16e/Lyy	.	16a\	-tris	16dd\	-tris
16D\JJyy	.	.	16d/JJyy	.	16d/JJyy	.	16a\	.	16dd\	.
!	!	!	!	!	!yLO:TX:a:t=Finis	!	!	!	!	!
!	!	!	!yLO:TX:t=P:problem=mixed beam	!	!yLO:TX:t=P:problem=mixed beam	!	!	!	!	!
8A\Lyy	.	.	8a\Lyy	.	8a/Lyy	.	8a\	u-	8cc#\	u-
!	!	!	!yLO:TX:t=P:problem=podwójna fermata na kresce taktowej	!	!	!	!	!	!	!
8AA/Jyy	.	.	8A/Jyy	.	8A/Jyy	.	8a\	-be-	8cc#\	-be-
=169	=169	=169	=169	=169	=169	=169	=169	=169	=169	=169
8D\yy	.	.	8d/yy	.	8d/yy	.	8a\	-re	4dd\	-re
8ryy	.	.	8ryy	.	8ryy	.	8a\	.	.	.
!	!	!	!	!	!	!	!	!	!LO:TX:b:t=141.	!
4ryy	.	.	4ryy	.	4ryy	.	4r	.	4r	.
==	==	==	==	==	==	==	==	==	==	==
*-	*-	*-	*-	*-	*-	*-	*-	*-	*-	*-
!!!system-decoration: [(s1,s2)][(s3,s4,s5)]
!!!RDF**kern: > = above
!!!RDF**kern: < = below
!!!ENC: Katarzyna Serwa
!!!END: 2021-05-29
!!!ENC: Natalia Wrzos
!!!END: 2022-03-25
